!!!!SEGMENT: pl-cz--ii-132_krogulski-jozef--samemu-bogu.krn
!!!cenid: 18xx:937
!!!COM: Krogulski, Józef Władysław
!!!COM-rismID: pe30001797
!!!CDT: 1815/10/04-1842/01/09
!!!CNT: Polish
!!!OTL: Samemu Bogu
!!!PDT:
!!!AGN: Sacred
!!!SMS-siglum: PL-CZ
!!!SMS-shelfmark: II-132
!!!SMS-shelfwork: W
!!!SMS-variant:
!!!SMS-altvar:
!!!NIFC-rismSourceID: 300000647
!!!NIFC-rismChildID: 300000647
!!!NIFC-islandoraID: pl-cz:32338
!!!URL-pdf-islandora: https://repozytorium.nifc.pl/islandora/object/pl-cz%3A32338/datastream/PDF/view
!!!URL-scan: https://polish.musicsources.pl/pl/lokalizacje/galeria/rekopisy/6757/1 @EN{Scan on Polish Music Sources Website} @PL{Skany w portalu Dziedzictwo Muzyki Polskiej w otwartym dostępie}
!!!ONB-nifc:
!!!AIN: 1 alto 1 bass 1 organ 2 soprn 2 tenor
!!!key: G
**kern	**kern	**kern	**dynam	**text	**mod-text	**kern	**dynam	**text	**mod-text	**kern	**dynam	**text	**mod-text	**kern	**dynam	**text	**mod-text	**kern	**dynam	**text	**mod-text	**kern	**dynam	**text	**mod-text
*	*	*group1	*	*	*	*group1	*	*	*	*group1	*	*	*	*group1	*	*	*	*group1	*	*	*	*group1	*	*	*
*part7	*part7	*part6	*part6	*part6	*part6	*part5	*part5	*part5	*part5	*part4	*	*part4	*part4	*part3	*part3	*part3	*part3	*part2	*part2	*part2	*part2	*part1	*part1	*part1	*part1
*staff8	*staff7	*staff6	*	*staff6	*staff6	*staff5	*	*staff5	*staff5	*staff4	*	*staff4	*staff4	*staff3	*	*staff3	*staff3	*staff2	*	*staff2	*staff2	*staff1	*	*staff1	*staff1
*I"Organo	*I"Organo	*I"Basso.	*	*	*	*I"Tenore 2do	*	*	*	*I"Tenore I°.	*	*	*	*I"Alto.	*	*	*	*I"Soprano 2do	*	*	*	*I"Soprano I.	*	*	*
*	*	*mI"Basso	*	*	*	*mI"Tenore II	*	*	*	*mI"Tenore I	*	*	*	*mI"Alto	*	*	*	*mI"Soprano II	*	*	*	*mI"Soprano I	*	*	*
*I'org	*I'org	*I'B	*	*	*	*I'T 2	*	*	*	*I'T 1	*	*	*	*I'A	*	*	*	*I'S 2	*	*	*	*I'S 1	*	*	*
*Iorgan	*Iorgan	*Ibass	*	*	*	*Itenor	*	*	*	*Itenor	*	*	*	*Ialto	*	*	*	*Isoprn	*	*	*	*Isoprn	*	*	*
*ICklav	*ICklav	*ICvox	*	*	*	*ICvox	*	*	*	*ICvox	*	*	*	*ICvox	*	*	*	*ICvox	*	*	*	*ICvox	*	*	*
*clefF4	*clefG2	*clefF4	*	*	*	*clefG2	*	*	*	*clefG2	*	*	*	*clefG2	*	*	*	*clefG2	*	*	*	*clefG2	*	*	*
*	*	*	*	*	*	*mclefGv2	*	*	*	*mclefGv2	*	*	*	*	*	*	*	*	*	*	*	*	*	*	*
!!LO:MO:ori
*	*	*	*	*	*	*ITrd8c12	*	*	*	*ITrd8c12	*	*	*	*	*	*	*	*	*	*	*	*	*	*	*
!!LO:MO:end
*k[f#]	*k[f#]	*k[f#]	*	*	*	*k[f#]	*	*	*	*k[f#]	*	*	*	*k[f#]	*	*	*	*k[f#]	*	*	*	*k[f#]	*	*	*
*G:	*G:	*G:	*	*	*	*G:	*	*	*	*G:	*	*	*	*G:	*	*	*	*G:	*	*	*	*G:	*	*	*
*M3/4	*M3/4	*M3/4	*	*	*	*M3/4	*	*	*	*M3/4	*	*	*	*M3/4	*	*	*	*M3/4	*	*	*	*M3/4	*	*	*
!!!OMD:
!!!OMD-mod: Andante ma non troppo
=1	=1	=1	=1	=1	=1	=1	=1	=1	=1	=1	=1	=1	=1	=1	=1	=1	=1	=1	=1	=1	=1	=1	=1	=1	=1
!	!LO:TX:a:i:t=Andante ma non troppo&colon;:mod=	!LO:TX:a:t=Andante ma non troppo.:mod=	!	!	!	!LO:TX:a:t=Andante ma non troppo.:mod=	!	!	!	!LO:TX:a:t=Andante ma non troppo:mod=	!	!	!	!	!	!	!	!	!	!	!	!	!	!	!
2G 2D 2BB 2GG\	2g 2d 2B/	4r	.	.	.	4r	.	.	.	4r	.	.	.	4r	.	.	.	4r	.	.	.	4r	.	.	.
.	.	4r	.	.	.	4r	.	.	.	4r	.	.	.	4r	.	.	.	4r	.	.	.	4r	.	.	.
4r	4r	4G\	.	Sa-	Sa-	4B\	.	Sa-	Sa-	4d\	.	Sa-	Sa-	4g/	.	Sa-	Sa-	4b\	.	Sa-	Sa-	4dd\	.	Sa-	Sa-
=2	=2	=2	=2	=2	=2	=2	=2	=2	=2	=2	=2	=2	=2	=2	=2	=2	=2	=2	=2	=2	=2	=2	=2	=2	=2
2.GG/	8G/L	2G\	.	-me-	-me-	2B\	.	-me-	-me-	2d\	.	-me-	-me-	2g/	.	-me-	-me-	2b\	.	-me-	-me-	2dd\	.	-me-	-me-
.	8B/	.	.	.	.	.	.	.	.	.	.	.	.	.	.	.	.	.	.	.	.	.	.	.	.
.	8d/	.	.	.	.	.	.	.	.	.	.	.	.	.	.	.	.	.	.	.	.	.	.	.	.
.	8g/	.	.	.	.	.	.	.	.	.	.	.	.	.	.	.	.	.	.	.	.	.	.	.	.
.	8b/	4G\	.	-mu	-mu	4B\	.	-mu	-mu	4d\	.	-mu	-mu	4g/	.	-mu	-mu	4b\	.	-mu	-mu	4dd\	.	-mu	-mu
.	8g/J	.	.	.	.	.	.	.	.	.	.	.	.	.	.	.	.	.	.	.	.	.	.	.	.
=3	=3	=3	=3	=3	=3	=3	=3	=3	=3	=3	=3	=3	=3	=3	=3	=3	=3	=3	=3	=3	=3	=3	=3	=3	=3
2.GG/	8d/L	2G\	.	Bo-	Bo-	2B\	.	Bo-	Bo-	2g\	.	Bo-	Bo-	2g/	.	Bo-	Bo-	2b\	.	Bo-	Bo-	2gg\	.	Bo-	Bo-
.	8B/	.	.	.	.	.	.	.	.	.	.	.	.	.	.	.	.	.	.	.	.	.	.	.	.
.	8d/	.	.	.	.	.	.	.	.	.	.	.	.	.	.	.	.	.	.	.	.	.	.	.	.
.	8g/	.	.	.	.	.	.	.	.	.	.	.	.	.	.	.	.	.	.	.	.	.	.	.	.
.	8b/	4G\	.	-gu	-gu	4B\	.	-gu	-gu	4d\	.	-gu	-gu	4g/	.	-gu	-gu	4b\	.	-gu	-gu	4dd\	.	-gu	-gu
.	8g/J	.	.	.	.	.	.	.	.	.	.	.	.	.	.	.	.	.	.	.	.	.	.	.	.
=4	=4	=4	=4	=4	=4	=4	=4	=4	=4	=4	=4	=4	=4	=4	=4	=4	=4	=4	=4	=4	=4	=4	=4	=4	=4
8G\L	8B/L	(8G\L	.	złóż-	złóż-	(4G/	.	złóż-	złóż-	(4B\	.	złóż-	złóż-	(8g/L	.	zło-	złóż-	(4g/	.	złó-	złóż-	(4b\	.	złóz-	złóż-
!	!	!	!	!	!	!	!	!	!	!	!	!	!	!LO:SIC:s=8e/J:v	!	!	!	!	!	!	!	!	!	!	!
8E\J	8g/	8E\J	.	.	.	.	.	.	.	.	.	.	.	8e/J)	.	.	.	.	.	.	.	.	.	.	.
!	!	!	!	!	!	!	!	!	!	!	!	!	!	!LO:SIC:s=4c/):v	!	!	!	!	!	!	!	!	!	!	!
4C/	8c/	4C\)	.	.	.	4A/)	.	.	.	4c\)	.	.	.	4c/	.	.	.	4a/)	.	.	.	4cc\)	.	.	.
.	8a/	.	.	.	.	.	.	.	.	.	.	.	.	.	.	.	.	.	.	.	.	.	.	.	.
4D\	8c/	4D\	.	-my	-my	4F#/	.	-my	-my	4A/	.	-my	-my	4d/	.	-żmy	-my	4f#/	.	-zmy	-my	4a/	.	-my	-my
.	8f#/J	.	.	.	.	.	.	.	.	.	.	.	.	.	.	.	.	.	.	.	.	.	.	.	.
=5	=5	=5	=5	=5	=5	=5	=5	=5	=5	=5	=5	=5	=5	=5	=5	=5	=5	=5	=5	=5	=5	=5	=5	=5	=5
4G\	8B/L	4G\	.	cześć	cześć,	4G/	.	cześć	cześć,	4B/	.	cześć,	cześć,	4g/	.	cześć	cześć,	4g/	.	cześć,	cześć,	4b\	.	cześć,	cześć,
.	8d/	.	.	.	.	.	.	.	.	.	.	.	.	.	.	.	.	.	.	.	.	.	.	.	.
4r	8g/	4r	.	.	.	4r	.	.	.	4r	.	.	.	4r	.	.	.	4r	.	.	.	4r	.	.	.
.	8b/	.	.	.	.	.	.	.	.	.	.	.	.	.	.	.	.	.	.	.	.	.	.	.	.
!	!	!	!	!	!	!	!	!	!	!	!	!	!	!	!	!	!	!LO:TX:a:t=d	!	!	!	!	!	!	!
4BB/	8g/	4BB/	.	Sa-	sa-	4D/	.	Sa-	sa-	4G/	.	Sa-	sa-	4B/	.	Sa-	sa-	4d/	.	Sa-	sa-	4g/	.	Sa-	sa-
.	8d/J	.	.	.	.	.	.	.	.	.	.	.	.	.	.	.	.	.	.	.	.	.	.	.	.
=6	=6	=6	=6	=6	=6	=6	=6	=6	=6	=6	=6	=6	=6	=6	=6	=6	=6	=6	=6	=6	=6	=6	=6	=6	=6
2C/	8e/L	2C/	.	-me-	-me-	2E/	.	-me-	-me-	2E/	.	-me-	-me-	2c/	.	-me-	-me-	2e/	.	-me-	-me-	2e/	.	-me-	-me-
.	8c/	.	.	.	.	.	.	.	.	.	.	.	.	.	.	.	.	.	.	.	.	.	.	.	.
.	8e/	.	.	.	.	.	.	.	.	.	.	.	.	.	.	.	.	.	.	.	.	.	.	.	.
.	8g/	.	.	.	.	.	.	.	.	.	.	.	.	.	.	.	.	.	.	.	.	.	.	.	.
4BB/	8d/	4BB/	.	-mu	-mu	4D/	.	-mu	-mu	4G/	.	-mu	-mu	4B/	.	-mu	-mu	4d/	.	-mu	-mu	4g/	.	-mu	-mu
.	8g/J	.	.	.	.	.	.	.	.	.	.	.	.	.	.	.	.	.	.	.	.	.	.	.	.
=7	=7	=7	=7	=7	=7	=7	=7	=7	=7	=7	=7	=7	=7	=7	=7	=7	=7	=7	=7	=7	=7	=7	=7	=7	=7
4AA/	8c/L	(4AA/	.	Bo-	Bo-	2E/	.	Bo-	Bo-	2c\	.	Bo-	Bo-	(4A/	.	Bo-	Bo-	2e/	.	Bo-	Bo-	2cc\	.	Bo-	Bo-
.	8e/	.	.	.	.	.	.	.	.	.	.	.	.	.	.	.	.	.	.	.	.	.	.	.	.
4C/	8a/	4C/)	.	.	.	.	.	.	.	.	.	.	.	4c/)	.	.	.	.	.	.	.	.	.	.	.
.	8cc/	.	.	.	.	.	.	.	.	.	.	.	.	.	.	.	.	.	.	.	.	.	.	.	.
4E\	8g/	4E/	.	-gu	-gu	4G/	.	-gu	-gu	4c\	.	-gu	-gu	4e/	.	-gu	-gu	4g/	.	-gu	-gu	4cc\	.	-gu	-gu
.	8cc/J	.	.	.	.	.	.	.	.	.	.	.	.	.	.	.	.	.	.	.	.	.	.	.	.
!LO:LB:g=original	!LO:LB:g=original	!	!	!	!	!	!	!	!	!	!	!	!	!	!	!	!	!	!	!	!	!	!	!	!
=8	=8	=8	=8	=8	=8	=8	=8	=8	=8	=8	=8	=8	=8	=8	=8	=8	=8	=8	=8	=8	=8	=8	=8	=8	=8
2.D\	8f#/L	2D\	.	złóż-	złóż-	2F#/	.	złóż-	złóż-	(4.c\	.	złóż-	złóż-	2d/	.	złoż-	złoż-	2f#/	.	złóż-	złóż-	(4.cc\	.	złóż-	złóż-
.	8cc/	.	.	.	.	.	.	.	.	.	.	.	.	.	.	.	.	.	.	.	.	.	.	.	.
.	8a/	.	.	.	.	.	.	.	.	.	.	.	.	.	.	.	.	.	.	.	.	.	.	.	.
.	8f#/	.	.	.	.	.	.	.	.	8B\)	.	.	.	.	.	.	.	.	.	.	.	8b\)	.	.	.
.	8d/	4D\	.	-my	-my	4F#/	.	-my	-my	8c\L	.	-my	-my	4d/	.	-my	-my	4f#/	.	-my	-my	8cc\L	.	-my	-my
.	8f#/J	.	.	.	.	.	.	.	.	8d\J	.	.	.	.	.	.	.	.	.	.	.	8dd\J	.	.	.
=9	=9	=9	=9	=9	=9	=9	=9	=9	=9	=9	=9	=9	=9	=9	=9	=9	=9	=9	=9	=9	=9	=9	=9	=9	=9
2.GG/	8g/L	4G\	.	cześć	cześć.	4G/	.	cześć	cześć.	4B/	.	cześć	cześć.	4g/	.	cześć	cześć.	4g/	.	cześć	cześć.	4b\	.	cześć	cześć.
.	8b/	.	.	.	.	.	.	.	.	.	.	.	.	.	.	.	.	.	.	.	.	.	.	.	.
.	8g/	4r	.	.	.	4r	.	.	.	4r	.	.	.	4r	.	.	.	4r	.	.	.	4r	.	.	.
.	8d/	.	.	.	.	.	.	.	.	.	.	.	.	.	.	.	.	.	.	.	.	.	.	.	.
.	8B/	4G\	.	Za	Za	4r	.	.	.	4r	.	.	.	4r	.	.	.	4r	.	.	.	4r	.	.	.
.	8d/J	.	.	.	.	.	.	.	.	.	.	.	.	.	.	.	.	.	.	.	.	.	.	.	.
=10	=10	=10	=10	=10	=10	=10	=10	=10	=10	=10	=10	=10	=10	=10	=10	=10	=10	=10	=10	=10	=10	=10	=10	=10	=10
2.C 2.CC/	8c/L	2c\	.	ła-	ła-	4r	.	.	.	4r	.	.	.	4r	.	.	.	4r	.	.	.	4r	.	.	.
.	8e/	.	.	.	.	.	.	.	.	.	.	.	.	.	.	.	.	.	.	.	.	.	.	.	.
.	8g/	.	.	.	.	4r	.	.	.	4r	.	.	.	4r	.	.	.	4r	.	.	.	4r	.	.	.
.	8cc/	.	.	.	.	.	.	.	.	.	.	.	.	.	.	.	.	.	.	.	.	.	.	.	.
.	8g/	4C/	.	-skę	-skę	4c\	.	Za	Za	4e\	.	Za	Za	4g/	.	Za	Za	4cc\	.	Za	Za	4ee\	.	Za	Za
.	8e/J	.	.	.	.	.	.	.	.	.	.	.	.	.	.	.	.	.	.	.	.	.	.	.	.
=11	=11	=11	=11	=11	=11	=11	=11	=11	=11	=11	=11	=11	=11	=11	=11	=11	=11	=11	=11	=11	=11	=11	=11	=11	=11
2C 2CC/	8c/L	(2C\	.	Je-	Je-	2e\	.	ła-	ła-	2g\	.	ła-	ła-	2g/	.	ła-	ła-	2ee\	.	ła-	ła-	2gg\	.	ła-	ła-
.	8e/	.	.	.	.	.	.	.	.	.	.	.	.	.	.	.	.	.	.	.	.	.	.	.	.
.	8g/	.	.	.	.	.	.	.	.	.	.	.	.	.	.	.	.	.	.	.	.	.	.	.	.
.	8cc/	.	.	.	.	.	.	.	.	.	.	.	.	.	.	.	.	.	.	.	.	.	.	.	.
4E 4EE/	8g/	4E\	.	.	.	4c\	.	-skę	-skę	4e\	.	-skę	-skę	4g/	.	-skę	-skę	4cc\	.	-skę	-skę	4ee\	.	-skę	-skę
.	8e/J	.	.	.	.	.	.	.	.	.	.	.	.	.	.	.	.	.	.	.	.	.	.	.	.
=12	=12	=12	=12	=12	=12	=12	=12	=12	=12	=12	=12	=12	=12	=12	=12	=12	=12	=12	=12	=12	=12	=12	=12	=12	=12
2.G 2.GG\	8c/L	2G\)	.	.	.	2c\	.	Je-	Je-	2e\	.	Je-	Je-	2g/	.	Je-	Je-	2cc\	.	Je-	Je-	2ee\	.	Je-	Je-
.	8e/	.	.	.	.	.	.	.	.	.	.	.	.	.	.	.	.	.	.	.	.	.	.	.	.
.	8g/	.	.	.	.	.	.	.	.	.	.	.	.	.	.	.	.	.	.	.	.	.	.	.	.
.	8cc/	.	.	.	.	.	.	.	.	.	.	.	.	.	.	.	.	.	.	.	.	.	.	.	.
.	8d/	4G\	.	-go	-go	4B\	.	-go	-go	4d\	.	-go	-go	4g/	.	-go	-go	4b\	.	-go	-go	4dd\	.	-go	-go
.	8b/J	.	.	.	.	.	.	.	.	.	.	.	.	.	.	.	.	.	.	.	.	.	.	.	.
=13	=13	=13	=13	=13	=13	=13	=13	=13	=13	=13	=13	=13	=13	=13	=13	=13	=13	=13	=13	=13	=13	=13	=13	=13	=13
4D 4DD/	8g/L	8D\L	.	dzię-	dzię-	8B\L	.	dzię-	dzię-	8d\L	.	dzię-	dzię-	8d/L	.	dzię-	dzię-	8b\L	.	dzię-	dzię-	8dd\L	.	dzię-	dzię-
.	8a/	8F#\J	.	.	.	8A\J	.	.	.	8c\J	.	.	.	8f#/J	.	.	.	8a\J	.	.	.	8cc\J	.	.	.
2G 2GG\	8b/	8G\	.	-ki	-ki,	8G/	.	-ki	-ki,	8B\	.	-ki	-ki,	8g/	.	-ki	-ki,	8g/	.	-ki	-ki,	8b\	.	-ki	-ki,
.	8g/	8r	.	.	.	8r	.	.	.	8r	.	.	.	8r	.	.	.	8r	.	.	.	8r	.	.	.
.	8d/	4G\	.	za	za	4r	.	.	.	4r	.	.	.	4r	.	.	.	4r	.	.	.	4r	.	.	.
.	8B/J	.	.	.	.	.	.	.	.	.	.	.	.	.	.	.	.	.	.	.	.	.	.	.	.
!	!	!	!	!	!	!	!	!	!	!	!	!	!	!LO:LB:g=original	!	!	!	!	!	!	!	!LO:LB:g=original	!	!	!
=14	=14	=14	=14	=14	=14	=14	=14	=14	=14	=14	=14	=14	=14	=14	=14	=14	=14	=14	=14	=14	=14	=14	=14	=14	=14
!LO:TX:a:t=P:problem=brak początku ligatury	!	!	!	!	!	!	!	!	!	!	!	!	!	!	!	!	!	!	!	!	!	!	!	!	!
[2.C [2.CC/	8c/L	2c\	.	ła-	ła-	4r	.	.	.	4r	.	.	.	4r	.	.	.	4r	.	.	.	4r	.	.	.
.	8e/	.	.	.	.	.	.	.	.	.	.	.	.	.	.	.	.	.	.	.	.	.	.	.	.
.	8g/	.	.	.	.	4r	.	.	.	4r	.	.	.	4r	.	.	.	4r	.	.	.	4r	.	.	.
.	8cc/	.	.	.	.	.	.	.	.	.	.	.	.	.	.	.	.	.	.	.	.	.	.	.	.
.	8g/	4C/	.	-skę	-skę	4c\	.	Za	za	4e\	.	Za	za	4c/	.	Za	za	4cc\	.	za	za	4ee\	.	za	za
.	8e/J	.	.	.	.	.	.	.	.	.	.	.	.	.	.	.	.	.	.	.	.	.	.	.	.
!LO:LB:g=original	!LO:LB:g=original	!LO:LB:g=original	!	!	!	!	!	!	!	!	!	!	!	!	!	!	!	!	!	!	!	!	!	!	!
=15	=15	=15	=15	=15	=15	=15	=15	=15	=15	=15	=15	=15	=15	=15	=15	=15	=15	=15	=15	=15	=15	=15	=15	=15	=15
2C] 2CC/]	8c/L	(2C/	.	Je-	Je-	(4e\	.	ła-	ła-	(4g\	.	ła-	ła-	2c/	.	ła-	ła-	(4ee\	.	ła-	ła-	(4gg\	.	ła-	ła-
.	8e/	.	.	.	.	.	.	.	.	.	.	.	.	.	.	.	.	.	.	.	.	.	.	.	.
.	8d/	.	.	.	.	4d\)	.	.	.	4f#\)	.	.	.	.	.	.	.	4dd\)	.	.	.	4ff#\)	.	.	.
.	8f#/	.	.	.	.	.	.	.	.	.	.	.	.	.	.	.	.	.	.	.	.	.	.	.	.
4E 4EE/	8e/	4E\	.	.	.	4c\	.	-skę	-skę	4e\	.	-skę	-skę	4e/	.	-skę	-skę	4cc\	.	-skę	-skę	4ee\	.	-skę	-skę
.	8g/J	.	.	.	.	.	.	.	.	.	.	.	.	.	.	.	.	.	.	.	.	.	.	.	.
!	!	!	!	!	!	!	!	!	!	!	!	!	!	!	!	!	!	!LO:LB:g=original	!	!	!	!	!	!	!
=16	=16	=16	=16	=16	=16	=16	=16	=16	=16	=16	=16	=16	=16	=16	=16	=16	=16	=16	=16	=16	=16	=16	=16	=16	=16
2G 2GG\	8d/L	2G\)	.	.	.	2B\	.	Je-	Je-	(4.d\	.	Je-	Je-	2g/	.	Je-	Je-	2b\	.	Je-	Je-	(4.dd\	.	Je-	Je-
.	8g/	.	.	.	.	.	.	.	.	.	.	.	.	.	.	.	.	.	.	.	.	.	.	.	.
.	8b/	.	.	.	.	.	.	.	.	.	.	.	.	.	.	.	.	.	.	.	.	.	.	.	.
.	8g/	.	.	.	.	.	.	.	.	8d#X\)	.	-go	-go	.	.	.	.	.	.	.	.	8dd#X\)	.	.	.
4C 4CC/	8e/	4C/	.	-go	-go	8c\L	.	-go	-go	8e\L	.	.	.	4c/	.	-go	-go	8cc\L	.	-go	-go	8ee\L	.	-go	-go
.	8a/J	.	.	.	.	8A\J	.	.	.	8c\J	.	.	.	.	.	.	.	8a\J	.	.	.	8cc\J	.	.	.
=17	=17	=17	=17	=17	=17	=17	=17	=17	=17	=17	=17	=17	=17	=17	=17	=17	=17	=17	=17	=17	=17	=17	=17	=17	=17
4D 4DD/	8f#/L	4D\	.	dzię-	dzię-	8F#/L	.	dzię-	dzię-	8A\L	.	dzię-	dzię-	4d/	.	dzię-	dzię-	8f#/L	.	dzię-	dzię-	8a\L	.	dzię-	dzię-
.	8c/	.	.	.	.	8A/J	.	.	.	8c\J	.	.	.	.	.	.	.	8a/J	.	.	.	8cc\J	.	.	.
4G 4GG\	8B/	8G\	.	-ki	-ki.	16G/	.	-ki	-ki.	8B\	.	-ki	-ki.	8g/	.	-ki	-ki.	16g/	.	-ki	-ki.	8b\	.	-ki	-ki.
.	.	.	.	.	.	16r	.	.	.	.	.	.	.	.	.	.	.	16r	.	.	.	.	.	.	.
.	8g/	8r	.	.	.	8B\	.	On	On	8r	.	.	.	8r	.	.	.	8g/	.	On	On	8r	.	.	.
4r	8d/	4r	.	.	.	8A#X\	.	nam	nam	4r	.	.	.	4r	.	.	.	8f#/	.	nam	nam	4r	.	.	.
.	8B/J	.	.	.	.	8B\	.	do-	do-	.	.	.	.	.	.	.	.	8g/	.	do-	do-	.	.	.	.
=18	=18	=18	=18	=18	=18	=18	=18	=18	=18	=18	=18	=18	=18	=18	=18	=18	=18	=18	=18	=18	=18	=18	=18	=18	=18
!	!	!LO:MO:mod=!null:null	!	!	!	!	!	!	!	!	!	!	!	!LO:MO:mod=!null:null	!	!	!	!	!	!	!	!	!	!	!
!	!	!LO:TX:a:t=1	!	!	!	!	!	!	!	!	!	!	!	!LO:TX:a:t=1	!	!	!	!	!	!	!	!	!	!	!
2.D 2.DD\	8A/L	2.r	.	.	.	4d\	.	-zwa-	-zwa-	4r	.	.	.	2.r	.	.	.	4b/	.	-zwa-	-zwa-	4r	.	.	.
.	8d/	.	.	.	.	.	.	.	.	.	.	.	.	.	.	.	.	.	.	.	.	.	.	.	.
.	8f#/	.	.	.	.	8c\	.	-la	-la,	8r	.	.	.	.	.	.	.	8a/	.	-la	-la,	8r	.	.	.
.	8a/	.	.	.	.	8r	.	.	.	8c\	.	On	On	.	.	.	.	8r	.	.	.	8a/	.	On	On
.	8f#/	.	.	.	.	4r	.	.	.	8B\	.	nam	nam	.	.	.	.	4r	.	.	.	8g#X/	.	nam	nam
.	8d/J	.	.	.	.	.	.	.	.	8c\	.	do-	do-	.	.	.	.	.	.	.	.	8a/	.	do-	do-
!	!	!	!	!	!	!LO:LB:g=original	!	!	!	!LO:LB:g=original	!	!	!	!	!	!	!	!	!	!	!	!	!	!	!
=19	=19	=19	=19	=19	=19	=19	=19	=19	=19	=19	=19	=19	=19	=19	=19	=19	=19	=19	=19	=19	=19	=19	=19	=19	=19
!	!	!	!	!	!	!LO:MO:mod=!null:null	!	!	!	!	!	!	!	!	!	!	!	!LO:MO:mod=!null:null	!	!	!	!	!	!	!
!	!	!	!	!	!	!LO:TX:a:t=2	!	!	!	!	!	!	!	!	!	!	!	!LO:TX:a:t=2	!	!	!	!	!	!	!
2.G 2.GG\	8B/L	4r	.	.	.	1.r	.	.	.	4e\	.	-zwa-	-zwa-	4r	.	.	.	1.r	.	.	.	4cc\	.	-zwa-	-zwa-
.	8d/	.	.	.	.	.	.	.	.	.	.	.	.	.	.	.	.	.	.	.	.	.	.	.	.
.	8g/	8r	.	.	.	.	.	.	.	8d\	.	-la	-la,	8r	.	.	.	.	.	.	.	8b\	.	-la	-la,
.	8b/	8G\	.	On	On	.	.	.	.	8r	.	.	.	8b\	.	On	On	.	.	.	.	8r	.	.	.
.	8g/	8B\	.	nam	nam	.	.	.	.	4r	.	.	.	8g\	.	nam	nam	.	.	.	.	4r	.	.	.
.	8d/J	8d\	.	do-	do-	.	.	.	.	.	.	.	.	8f#\	.	do-	do-	.	.	.	.	.	.	.	.
=20	=20	=20	=20	=20	=20	=20	=20	=20	=20	=20	=20	=20	=20	=20	=20	=20	=20	=20	=20	=20	=20	=20	=20	=20	=20
!	!	!	!	!	!	!	!	!	!	!LO:MO:mod=!null:null	!	!	!	!	!	!	!	!	!	!	!	!LO:MO:mod=!null:null	!	!	!
!	!	!	!	!	!	!	!	!	!	!LO:TX:a:t=2	!	!	!	!	!	!	!	!	!	!	!	!LO:TX:a:t=2	!	!	!
2C 2CC/	8c/L	4.c\	.	-zwa-	-zwa-	.	.	.	.	1.r	.	.	.	4.e/	.	-zwa-	-zwa-	.	.	.	.	1.r	.	.	.
.	8e/	.	.	.	.	.	.	.	.	.	.	.	.	.	.	.	.	.	.	.	.	.	.	.	.
.	8g/	.	.	.	.	.	.	.	.	.	.	.	.	.	.	.	.	.	.	.	.	.	.	.	.
.	8B/	8B\	.	-la	-la	.	.	.	.	.	.	.	.	8g/	.	-la	-la	.	.	.	.	.	.	.	.
4D 4DD/	8A/	8A\	.	ży-	ży-	.	.	.	.	.	.	.	.	8f#/	.	ży-	ży-	.	.	.	.	.	.	.	.
.	8f#/J	8c\	.	-cie	-cie	.	.	.	.	.	.	.	.	8a/	.	-cie	-cie	.	.	.	.	.	.	.	.
=21	=21	=21	=21	=21	=21	=21	=21	=21	=21	=21	=21	=21	=21	=21	=21	=21	=21	=21	=21	=21	=21	=21	=21	=21	=21
2.G 2.GG\	8B/L	4B\	.	wieść	wieść,	4r	.	.	.	.	.	.	.	4g/	.	wieść	wieść,	4r	.	.	.	.	.	.	.
.	8g/	.	.	.	.	.	.	.	.	.	.	.	.	.	.	.	.	.	.	.	.	.	.	.	.
.	8b/	4r	.	.	.	8r	.	.	.	.	.	.	.	4r	.	.	.	8r	.	.	.	.	.	.	.
.	8g/	.	.	.	.	8B\	.	On	On	.	.	.	.	.	.	.	.	8g/	.	On	On	.	.	.	.
.	8d/	4r	.	.	.	8A#X\	.	nam	nam	.	.	.	.	4r	.	.	.	8f#/	.	nam	nam	.	.	.	.
.	8B/J	.	.	.	.	8B\	.	do-	do-	.	.	.	.	.	.	.	.	8g/	.	do-	do-	.	.	.	.
!LO:LB:g=original	!LO:LB:g=original	!	!	!	!	!	!	!	!	!	!	!	!	!	!	!	!	!	!	!	!	!	!	!	!
=22	=22	=22	=22	=22	=22	=22	=22	=22	=22	=22	=22	=22	=22	=22	=22	=22	=22	=22	=22	=22	=22	=22	=22	=22	=22
!	!	!LO:MO:mod=!null:null	!	!	!	!	!	!	!	!	!	!	!	!LO:MO:mod=!null:null	!	!	!	!	!	!	!	!	!	!	!
!	!	!LO:TX:a:t=1	!	!	!	!	!	!	!	!	!	!	!	!LO:TX:a:t=1	!	!	!	!	!	!	!	!	!	!	!
2.D 2.DD/	8A/L	2.r	.	.	.	4d\	.	-zwa-	-zwa-	4r	.	.	.	2.r	.	.	.	4b/	.	-zwa-	-zwa-	4r	.	.	.
.	8d/	.	.	.	.	.	.	.	.	.	.	.	.	.	.	.	.	.	.	.	.	.	.	.	.
.	8f#/	.	.	.	.	8c\	.	-la	-la	8r	.	.	.	.	.	.	.	8a/	.	-la	-la	8r	.	.	.
.	8a/	.	.	.	.	8r	.	.	.	8c\	.	On	On	.	.	.	.	8r	.	.	.	8a/	.	On	On
.	8f#/	.	.	.	.	4r	.	.	.	8B\	.	nam	nam	.	.	.	.	4r	.	.	.	8g#X/	.	nam	nam
.	8d/J	.	.	.	.	.	.	.	.	8c\	.	do-	do-	.	.	.	.	.	.	.	.	8a/	.	do-	do-
=23	=23	=23	=23	=23	=23	=23	=23	=23	=23	=23	=23	=23	=23	=23	=23	=23	=23	=23	=23	=23	=23	=23	=23	=23	=23
!	!	!	!	!	!	!LO:MO:mod=!null:null	!	!	!	!	!	!	!	!	!	!	!	!LO:MO:mod=!null:null	!	!	!	!	!	!	!
!	!	!	!	!	!	!LO:TX:a:t=2	!	!	!	!	!	!	!	!	!	!	!	!LO:TX:a:t=2	!	!	!	!	!	!	!
2.G 2.GG\	8B/L	4r	.	.	.	1.r	.	.	.	4e\	.	-zwa-	-zwa-	4r	.	.	.	1.r	.	.	.	4cc\	.	-zwa-	-zwa-
.	8d/	.	.	.	.	.	.	.	.	.	.	.	.	.	.	.	.	.	.	.	.	.	.	.	.
.	8g/	8r	.	.	.	.	.	.	.	8d\	.	-la	-la	8r	.	.	.	.	.	.	.	8b\	.	-la	-la
.	8b/	8G\	.	On	On	.	.	.	.	8r	.	.	.	8b/	.	On	On	.	.	.	.	8r	.	.	.
.	8g/	8B\	.	nam	nam	.	.	.	.	4r	.	.	.	8g/	.	nam	nam	.	.	.	.	4r	.	.	.
.	8d/J	8d\	.	do-	do-	.	.	.	.	.	.	.	.	8f#/	.	do-	do-	.	.	.	.	.	.	.	.
=24	=24	=24	=24	=24	=24	=24	=24	=24	=24	=24	=24	=24	=24	=24	=24	=24	=24	=24	=24	=24	=24	=24	=24	=24	=24
!	!	!	!	!	!	!	!	!	!	!LO:MO:mod=!null:null	!	!	!	!	!	!	!	!	!	!	!	!LO:MO:mod=!null:null	!	!	!
!	!	!	!	!	!	!	!	!	!	!LO:TX:a:t=1	!	!	!	!	!	!	!	!	!	!	!	!LO:TX:a:t=1	!	!	!
2C 2CC/	8c/L	4.c\	.	-zwa-	-zwa-	.	.	.	.	2.r	.	.	.	4.e/	.	-zwa-	-zwa-	.	.	.	.	2.r	.	.	.
.	8e/	.	.	.	.	.	.	.	.	.	.	.	.	.	.	.	.	.	.	.	.	.	.	.	.
.	8g/	.	.	.	.	.	.	.	.	.	.	.	.	.	.	.	.	.	.	.	.	.	.	.	.
.	8B/	8B\	.	-la	-la	.	.	.	.	.	.	.	.	8g/	.	-la	-la	.	.	.	.	.	.	.	.
4D 4DD/	8A/	8A\	.	ży-	ży-	.	.	.	.	.	.	.	.	8f#/	.	ży-	ży-	.	.	.	.	.	.	.	.
.	8f#/J	8c\	.	-cie	-cie	.	.	.	.	.	.	.	.	8a/	.	-cie	-cie	.	.	.	.	.	.	.	.
=25	=25	=25	=25	=25	=25	=25	=25	=25	=25	=25	=25	=25	=25	=25	=25	=25	=25	=25	=25	=25	=25	=25	=25	=25	=25
*	*	*	*	*	*	*	*	*	*	*	*	*	*	*	*	*	*	*	*^	*	*	*	*	*	*
2G 2GG\	8B/L	4B\	.	wieść	wieść	4r	.	.	.	4r	.	.	.	4g/	.	wieść	wieść	4r	.	.	.	.	4r	.	.	.
.	8d/	.	.	.	.	.	.	.	.	.	.	.	.	.	.	.	.	.	.	.	.	.	.	.	.	.
!	!	!	!	!	!	!	!	!	!	!	!	!	!	!	!	!	!	!	!	!	!	!	!	!	!	!
!	!	!	!	!	!	!	!	!	!	!	!	!	!	!	!	!	!	!	!LO:DY:b:rj	!LO:DY:a	!	!	!	!LO:DY:b	!	!
!	!	!	!	!	!	!	!	!	!	!	!	!	!	!	!	!	!	!	!	!	!	!	!	!LO:MO:mod=!null:null	!	!
!	!	!	!	!	!	!	!	!	!	!	!	!	!	!	!	!	!	!	!LO:MO:mod=!null:null	!	!	!	!	!	!	!
.	8g/	8r	.	.	.	8r	.	.	.	8r	.	.	.	8r	.	.	.	8r	f	.	.	.	8r	f	.	.
!	!	!	!LO:DY:b:rj	!	!	!	!LO:DY:a	!	!	!	!	!	!	!	!LO:DY:b:rj	!	!	!	!	!	!	!	!	!	!	!
!	!	!	!	!	!	!	!	!	!	!	!LO:DY:t= :mod=%s	!	!	!	!	!	!	!	!	!	!	!	!	!	!	!
!	!	!	!	!	!	!	!	!	!	!	!LO:MO:mod=!LO&colon;DY&colon;ed=brack	!	!	!	!	!	!	!	!	!	!	!	!	!	!	!
!	!	!	!	!	!	!	!	!	!	!	!null	!	!	!	!	!	!	!	!	!	!	!	!	!	!	!
!	!	!	!	!	!	!	!	!	!	!	!	!	!	!	!	!	!	!	!LO:DY:t= :mod=%s	!	!	!	!	!	!	!
!	!	!	!	!	!	!	!	!	!	!	!	!	!	!	!	!	!	!	!LO:MO:mod=!LO&colon;DY&colon;ed=	!	!	!	!	!	!	!
!	!	!	!	!	!	!	!	!	!	!	!	!	!	!	!	!	!	!	!	!	!	!	!	!LO:DY:t= :mod=%s	!	!
!	!	!	!	!	!	!	!	!	!	!	!	!	!	!	!	!	!	!	!	!	!	!	!	!LO:MO:mod=!LO&colon;DY&colon;ed=	!	!
!	!	!	!	!	!	!	!	!	!	!	!	!	!	!	!	!	!	!	!null	!	!	!	!	!null	!	!
.	8b/	8B\	f	bez	bez	8B\	f	bez	bez	8B\	f	bez	bez	8b\	f	bez	bez	8b\	f	.	bez	bez	8b\	f	bez	bez
4E 4EE\	8g/	8B\	.	nie-	nie-	8B\	.	nie-	nie-	8B\	.	nie-	nie-	8b\	.	nie-	nie-	8b\	.	.	nie-	nie-	8b\	.	nie-	nie-
.	8c#X/J	8c#X\	.	-bez-	-bez-	8c#X\	.	-bez-	-bez-	8c#X\	.	-bez-	-bez-	8cc#X\	.	-bez-	-bez-	8cc#X\	.	.	-bez-	-bez-	8cc#X\	.	-bez-	-bez-
!	!	!	!	!	!	!	!	!	!	!	!	!	!	!	!	!	!	!	!	!	!	!	!LO:LB:g=original	!	!	!
*	*	*	*	*	*	*	*	*	*	*	*	*	*	*	*	*	*	*	*v	*v	*	*	*	*	*	*
=26	=26	=26	=26	=26	=26	=26	=26	=26	=26	=26	=26	=26	=26	=26	=26	=26	=26	=26	=26	=26	=26	=26	=26	=26	=26
2.D 2.DD/	8d/L	4d\	.	-pie-	-pie-	4d\	.	-pie-	-pie-	4d\	.	-pie-	-pie-	4dd\	.	-pie-	-pie-	4dd\	.	-pie-	-pie-	4dd\	.	-pie-	-pie-
.	8f#/	.	.	.	.	.	.	.	.	.	.	.	.	.	.	.	.	.	.	.	.	.	.	.	.
.	8a/	4D\	.	-czeństw	-czeństw	4D/	.	-czeństw	-czeństw	4D/	.	-czeństw	-czeństw	4d/	.	-czeństw	-czeństw	4d/	.	-czeństw	-czeństw	4d/	.	-czeństw	-czeństw
.	8e#X/	.	.	.	.	.	.	.	.	.	.	.	.	.	.	.	.	.	.	.	.	.	.	.	.
.	8f#/	4r	.	.	.	4r	.	.	.	4r	.	.	.	4r	.	.	.	4r	.	.	.	4r	.	.	.
.	8d/J	.	.	.	.	.	.	.	.	.	.	.	.	.	.	.	.	.	.	.	.	.	.	.	.
!	!	!LO:LB:g=original	!	!	!	!	!	!	!	!	!	!	!	!LO:LB:g=original	!	!	!	!	!	!	!	!	!	!	!
=27	=27	=27	=27	=27	=27	=27	=27	=27	=27	=27	=27	=27	=27	=27	=27	=27	=27	=27	=27	=27	=27	=27	=27	=27	=27
4E-X 4EE-X\	8c#X/L	4E-X\	.	mę-	mę-	4E-X/	.	mę-	mę-	4E-X/	.	mę-	mę-	4e-X/	.	mę-	mę-	4e-X/	.	mę-	mę-	4e-X/	.	mę-	mę-
.	8g/	.	.	.	.	.	.	.	.	.	.	.	.	.	.	.	.	.	.	.	.	.	.	.	.
4D 4DD\	8f#/	4D\	.	-ki	-ki.	4D/	.	-ki	-ki.	4D/	.	-ki	-ki.	4d/	.	-ki	-ki.	4d/	.	-ki	-ki.	4d/	.	-ki	-ki.
.	8d/	.	.	.	.	.	.	.	.	.	.	.	.	.	.	.	.	.	.	.	.	.	.	.	.
4r	8f#/	4r	.	.	.	4r	.	.	.	4r	.	.	.	4r	.	.	.	4r	.	.	.	4r	.	.	.
.	8a/J	.	.	.	.	.	.	.	.	.	.	.	.	.	.	.	.	.	.	.	.	.	.	.	.
=28	=28	=28	=28	=28	=28	=28	=28	=28	=28	=28	=28	=28	=28	=28	=28	=28	=28	=28	=28	=28	=28	=28	=28	=28	=28
!	!LO:MO:mod=!LO&colon;TX&colon;a&colon;i&colon;t=Tasto solo	!LO:MO:mod=!null:null	!	!	!	!LO:MO:mod=!null:null	!	!	!	!LO:MO:mod=!null:null	!	!	!	!LO:MO:mod=!null:null	!	!	!	!LO:MO:mod=!null:null	!	!	!	!LO:MO:mod=!null:null	!	!	!
!	!LO:TX:a:i:t=tasto solo	!LO:TX:a:t=3	!	!	!	!LO:TX:a:t=3	!	!	!	!LO:TX:a:t=3	!	!	!	!LO:TX:a:t=3	!	!	!	!LO:TX:a:t=3.	!	!	!	!LO:TX:a:t=3	!	!	!
2.r	8dd\L	1.r	.	.	.	1.r	.	.	.	1.r	.	.	.	1.r	.	.	.	1.r	.	.	.	1.r	.	.	.
.	8ee-X\	.	.	.	.	.	.	.	.	.	.	.	.	.	.	.	.	.	.	.	.	.	.	.	.
.	8dd\	.	.	.	.	.	.	.	.	.	.	.	.	.	.	.	.	.	.	.	.	.	.	.	.
.	8cc#X\	.	.	.	.	.	.	.	.	.	.	.	.	.	.	.	.	.	.	.	.	.	.	.	.
.	8dd\	.	.	.	.	.	.	.	.	.	.	.	.	.	.	.	.	.	.	.	.	.	.	.	.
.	8ee-\J	.	.	.	.	.	.	.	.	.	.	.	.	.	.	.	.	.	.	.	.	.	.	.	.
=29	=29	=29	=29	=29	=29	=29	=29	=29	=29	=29	=29	=29	=29	=29	=29	=29	=29	=29	=29	=29	=29	=29	=29	=29	=29
[2.e-X [2.c [2.A [2.Fn\	8ffn\L	.	.	.	.	.	.	.	.	.	.	.	.	.	.	.	.	.	.	.	.	.	.	.	.
.	8een\	.	.	.	.	.	.	.	.	.	.	.	.	.	.	.	.	.	.	.	.	.	.	.	.
.	8gg\	.	.	.	.	.	.	.	.	.	.	.	.	.	.	.	.	.	.	.	.	.	.	.	.
.	8ff\	.	.	.	.	.	.	.	.	.	.	.	.	.	.	.	.	.	.	.	.	.	.	.	.
.	8ee-X\	.	.	.	.	.	.	.	.	.	.	.	.	.	.	.	.	.	.	.	.	.	.	.	.
.	8dd\J	.	.	.	.	.	.	.	.	.	.	.	.	.	.	.	.	.	.	.	.	.	.	.	.
!LO:LB:g=original	!LO:LB:g=original	!	!	!	!	!	!	!	!	!	!	!	!	!	!	!	!	!	!	!	!	!	!	!	!
=30	=30	=30	=30	=30	=30	=30	=30	=30	=30	=30	=30	=30	=30	=30	=30	=30	=30	=30	=30	=30	=30	=30	=30	=30	=30
!LO:SIC:s=4e-X] 4c] 4A] 4FnX\]:v	!LO:MO:mod=!LO&colon;TX&colon;a&colon;i&colon;t=Organo	!	!	!	!	!	!	!	!	!	!	!	!	!	!	!	!	!	!	!	!	!	!	!	!
!LO:TX:a:t=P:problem=brak zakończenia ligatury	!LO:TX:a:i:t=organo	!	!	!	!	!	!	!	!	!	!	!	!	!	!	!	!	!	!	!	!	!	!	!	!
4e-X] 4c] 4A] 4Fn\]	8ffn\L	2.r	.	.	.	2.r	.	.	.	2.r	.	.	.	2.r	.	.	.	2.r	.	.	.	2.r	.	.	.
.	8ee-X\	.	.	.	.	.	.	.	.	.	.	.	.	.	.	.	.	.	.	.	.	.	.	.	.
4r	8dd\	.	.	.	.	.	.	.	.	.	.	.	.	.	.	.	.	.	.	.	.	.	.	.	.
.	8ee-\	.	.	.	.	.	.	.	.	.	.	.	.	.	.	.	.	.	.	.	.	.	.	.	.
4r	8g\	.	.	.	.	.	.	.	.	.	.	.	.	.	.	.	.	.	.	.	.	.	.	.	.
.	8a\J	.	.	.	.	.	.	.	.	.	.	.	.	.	.	.	.	.	.	.	.	.	.	.	.
=31	=31	=31	=31	=31	=31	=31	=31	=31	=31	=31	=31	=31	=31	=31	=31	=31	=31	=31	=31	=31	=31	=31	=31	=31	=31
2.BB-X/	8b-X\L	4r	.	.	.	4r	.	.	.	4r	.	.	.	4r	.	.	.	4r	.	.	.	4r	.	.	.
.	8d\	.	.	.	.	.	.	.	.	.	.	.	.	.	.	.	.	.	.	.	.	.	.	.	.
.	8fn\	4r	.	.	.	4r	.	.	.	4r	.	.	.	4r	.	.	.	4r	.	.	.	4r	.	.	.
.	8b-\	.	.	.	.	.	.	.	.	.	.	.	.	.	.	.	.	.	.	.	.	.	.	.	.
.	8dd\	4B-X\	.	On	On	4d\	.	On	On	4f\	.	On	On	4b-X\	.	On	On	4dd\	.	On	On	4ffn\	.	On	On
.	8b-\J	.	.	.	.	.	.	.	.	.	.	.	.	.	.	.	.	.	.	.	.	.	.	.	.
=32	=32	=32	=32	=32	=32	=32	=32	=32	=32	=32	=32	=32	=32	=32	=32	=32	=32	=32	=32	=32	=32	=32	=32	=32	=32
2.BB-X/	8fn\L	2B-X\	.	go-	go-	2d\	.	go-	go-	2f\	.	go-	go-	2b-X\	.	go-	go-	2dd\	.	go-	go-	2ffn\	.	go-	go-
.	8d\	.	.	.	.	.	.	.	.	.	.	.	.	.	.	.	.	.	.	.	.	.	.	.	.
.	8f\	.	.	.	.	.	.	.	.	.	.	.	.	.	.	.	.	.	.	.	.	.	.	.	.
.	8b-X\	.	.	.	.	.	.	.	.	.	.	.	.	.	.	.	.	.	.	.	.	.	.	.	.
.	8dd\	4B-\	.	-tów	-tów	4d\	.	-tów	-tów	4f\	.	-tów	-tów	4b-\	.	-tów	-tów	4dd\	.	-tów	-tów	4ff\	.	-tów	-tów
.	8b-\J	.	.	.	.	.	.	.	.	.	.	.	.	.	.	.	.	.	.	.	.	.	.	.	.
!	!	!	!	!	!	!	!	!	!	!	!	!	!	!	!	!	!	!LO:LB:g=original	!	!	!	!	!	!	!
=33	=33	=33	=33	=33	=33	=33	=33	=33	=33	=33	=33	=33	=33	=33	=33	=33	=33	=33	=33	=33	=33	=33	=33	=33	=33
2.BB-X/	8g\L	2B-X\	.	za-	za-	2e-X\	.	zaw-	za-	2g\	.	zaw-	za-	2b-X\	.	zaw-	za-	2ee-X\	.	zaw-	za-	2gg\	.	za-	za-
.	8b-X\	.	.	.	.	.	.	.	.	.	.	.	.	.	.	.	.	.	.	.	.	.	.	.	.
.	8ee-X\	.	.	.	.	.	.	.	.	.	.	.	.	.	.	.	.	.	.	.	.	.	.	.	.
.	8b-\	.	.	.	.	.	.	.	.	.	.	.	.	.	.	.	.	.	.	.	.	.	.	.	.
.	8fn\	4B-\	.	-wsze	-wsze	4d\	.	-sze	-wsze	4f\	.	-sze	-wsze	4b-\	.	-sze	-wsze	4dd\	.	-sze	-wsze	4ffn\	.	-wsze	-wsze
.	8dd\J	.	.	.	.	.	.	.	.	.	.	.	.	.	.	.	.	.	.	.	.	.	.	.	.
=34	=34	=34	=34	=34	=34	=34	=34	=34	=34	=34	=34	=34	=34	=34	=34	=34	=34	=34	=34	=34	=34	=34	=34	=34	=34
8BB-X/L	8b-X\L	(8B-X\L	.	po-	po-	(4B-X\	.	po-	po-	(4d\	.	po-	po-	(8b-X/L	.	po-	po-	(4b-X\	.	po-	po-	(4dd\	.	po-	po-
8GG/J	8dd\	8G\J	.	.	.	.	.	.	.	.	.	.	.	8g/J	.	.	.	.	.	.	.	.	.	.	.
4EE-X/	8g\	4E-X\)	.	.	.	4c\)	.	.	.	4e-X\)	.	.	.	4e-X/)	.	.	.	4cc\)	.	.	.	4ee-X\)	.	.	.
.	8ee-X\	.	.	.	.	.	.	.	.	.	.	.	.	.	.	.	.	.	.	.	.	.	.	.	.
4FFn/	8a\	4Fn\	.	-moc	-moc	4A/	.	-moc	-moc	4c\	.	-moc	-moc	4fn/	.	-moc	-moc	4a/	.	-moc	-moc	4cc\	.	-moc	-moc
.	8ccn\J	.	.	.	.	.	.	.	.	.	.	.	.	.	.	.	.	.	.	.	.	.	.	.	.
=35	=35	=35	=35	=35	=35	=35	=35	=35	=35	=35	=35	=35	=35	=35	=35	=35	=35	=35	=35	=35	=35	=35	=35	=35	=35
4BB-X/	8b-X\L	4B-X\	.	dać	dać,	4B-X\	.	dać	dać,	4d\	.	dać	dać,	4b-X\	.	dać	dać,	4b-X\	.	dać	dać,	4dd\	.	dać	dać,
.	8dd\	.	.	.	.	.	.	.	.	.	.	.	.	.	.	.	.	.	.	.	.	.	.	.	.
!	!LO:SIC:s=8ff\	!	!	!	!	!	!	!	!	!	!	!	!	!	!	!	!	!	!	!	!	!	!	!	!
4r	8ff#\	4r	.	.	.	4r	.	.	.	4r	.	.	.	4r	.	.	.	4r	.	.	.	4r	.	.	.
.	8dd\	.	.	.	.	.	.	.	.	.	.	.	.	.	.	.	.	.	.	.	.	.	.	.	.
4D\	8b-\	4D\	.	On	On	4F/	.	On	On	4B-X\	.	On	On	4d/	.	On	On	4fn/	.	On	On	4b-X\	.	On	On
.	8fn\J	.	.	.	.	.	.	.	.	.	.	.	.	.	.	.	.	.	.	.	.	.	.	.	.
=36	=36	=36	=36	=36	=36	=36	=36	=36	=36	=36	=36	=36	=36	=36	=36	=36	=36	=36	=36	=36	=36	=36	=36	=36	=36
2E-X\	8g\L	2E-X\	.	go-	go-	2E-X/	.	go-	go-	2G/	.	go-	go-	2e-X/	.	go-	go-	2e-X/	.	go-	go-	2g/	.	go-	go-
.	8e-X\	.	.	.	.	.	.	.	.	.	.	.	.	.	.	.	.	.	.	.	.	.	.	.	.
.	8g\	.	.	.	.	.	.	.	.	.	.	.	.	.	.	.	.	.	.	.	.	.	.	.	.
.	8b-X\	.	.	.	.	.	.	.	.	.	.	.	.	.	.	.	.	.	.	.	.	.	.	.	.
4D\	8fn\	4D\	.	-tów	-tów	4F/	.	-tów	-tów	4B-X/	.	-tów	-tów	4d/	.	-tów	-tów	4fn/	.	-tów	-tów	4b-X/	.	-tów	-tów
.	8b-\J	.	.	.	.	.	.	.	.	.	.	.	.	.	.	.	.	.	.	.	.	.	.	.	.
=37	=37	=37	=37	=37	=37	=37	=37	=37	=37	=37	=37	=37	=37	=37	=37	=37	=37	=37	=37	=37	=37	=37	=37	=37	=37
!	!	!	!	!	!	!	!	!	!	!LO:SIC:v:s=2c\	!	!	!	!	!	!	!	!	!	!	!	!	!	!	!
4C\	8g\L	(4C\	.	za-	za-	2G/	.	zaw-	za-	2c-X\	.	zaw-	za-	(4c/	.	za-	za-	2g/	.	zaw-	za-	2ee-X\	.	zaw-	za-
.	8e-X\	.	.	.	.	.	.	.	.	.	.	.	.	.	.	.	.	.	.	.	.	.	.	.	.
4E-X\	8g\	4E-X\)	.	.	.	.	.	.	.	.	.	.	.	4e-X/)	.	.	.	.	.	.	.	.	.	.	.
.	8ee-X\	.	.	.	.	.	.	.	.	.	.	.	.	.	.	.	.	.	.	.	.	.	.	.	.
!	!	!	!	!	!	!	!	!	!	!LO:SIC:v:s=4e-\	!	!	!	!	!	!	!	!	!	!	!	!	!	!	!
4G\	8b-X\	4G\	.	-wsze	-wsze	4B-X\	.	-sze	-wsze	4e\	.	-sze	-wsze	4g/	.	-wsze	-wsze	4b-X\	.	-sze	-wsze	4ee-\	.	-sze	-wsze
.	8ee-\J	.	.	.	.	.	.	.	.	.	.	.	.	.	.	.	.	.	.	.	.	.	.	.	.
!LO:LB:g=original	!LO:LB:g=original	!	!	!	!	!	!	!	!	!	!	!	!	!	!	!	!	!	!	!	!	!	!	!	!
=38	=38	=38	=38	=38	=38	=38	=38	=38	=38	=38	=38	=38	=38	=38	=38	=38	=38	=38	=38	=38	=38	=38	=38	=38	=38
2.Fn\	8cc\L	2Fn\	.	po-	po-	2A/	.	po-	po-	(4.e-X\	.	po-	po-	2fn/	.	po-	po-	2a/	.	po-	po-	(4.ee-X\	.	po-	po-
.	8ee-X\	.	.	.	.	.	.	.	.	.	.	.	.	.	.	.	.	.	.	.	.	.	.	.	.
.	8cc\	.	.	.	.	.	.	.	.	.	.	.	.	.	.	.	.	.	.	.	.	.	.	.	.
.	8a\	.	.	.	.	.	.	.	.	8d\)	.	.	.	.	.	.	.	.	.	.	.	8dd\)	.	.	.
.	8fn\	4F\	.	-moc	-moc	4A/	.	-moc	-moc	8e-\L	.	-moc	-moc	4f/	.	-moc	-moc	4a/	.	-moc	-moc	8ee-\L	.	-moc	-moc
.	8a\J	.	.	.	.	.	.	.	.	8f\J	.	.	.	.	.	.	.	.	.	.	.	8ffn\J	.	.	.
!	!	!	!	!	!	!	!	!	!	!LO:LB:g=original	!	!	!	!	!	!	!	!	!	!	!	!	!	!	!
=39	=39	=39	=39	=39	=39	=39	=39	=39	=39	=39	=39	=39	=39	=39	=39	=39	=39	=39	=39	=39	=39	=39	=39	=39	=39
4B-X\	8b-X\L	4B-X\	.	dać	dać,	4B-X\	.	dać	dać,	4d\	.	dać	dać,	4b-X\	.	dać	dać,	4b-X\	.	dać	dać,	4dd\	.	dać	dać,
.	8dd\	.	.	.	.	.	.	.	.	.	.	.	.	.	.	.	.	.	.	.	.	.	.	.	.
4r	8b-\	4r	.	.	.	4r	.	.	.	4r	.	.	.	4r	.	.	.	4r	.	.	.	4r	.	.	.
.	8fn\	.	.	.	.	.	.	.	.	.	.	.	.	.	.	.	.	.	.	.	.	.	.	.	.
4r	8d\	4D\	.	Swą	Swą	4D/	.	Swą	Swą	4D/	.	Swą	Swą	4d/	.	Swą	Swą	4d/	.	Swą	Swą	4d/	.	Swą	Swą
.	8f\J	.	.	.	.	.	.	.	.	.	.	.	.	.	.	.	.	.	.	.	.	.	.	.	.
!	!	!	!	!	!	!	!	!	!	!	!	!	!	!	!	!	!	!	!	!	!	!LO:LB:g=original	!	!	!
=40	=40	=40	=40	=40	=40	=40	=40	=40	=40	=40	=40	=40	=40	=40	=40	=40	=40	=40	=40	=40	=40	=40	=40	=40	=40
2.BB-\	8d/L	2D\	.	ra-	ra-	2D/	.	ra-	ra-	2D/	.	ra-	ra-	2d/	.	ra-	ra-	2d/	.	ra-	ra-	2d/	.	ra-	ra-
.	8Fn</	.	.	.	.	.	.	.	.	.	.	.	.	.	.	.	.	.	.	.	.	.	.	.	.
.	8d/	.	.	.	.	.	.	.	.	.	.	.	.	.	.	.	.	.	.	.	.	.	.	.	.
.	8fny/	.	.	.	.	.	.	.	.	.	.	.	.	.	.	.	.	.	.	.	.	.	.	.	.
.	8d/	4D\	.	-dą	-dą	4D/	.	-dą	-dą	4D/	.	-dą	-dą	4d/	.	-dą	-dą	4d/	.	-dą	-dą	4d/	.	-dą	-dą
.	8F</J	.	.	.	.	.	.	.	.	.	.	.	.	.	.	.	.	.	.	.	.	.	.	.	.
=41	=41	=41	=41	=41	=41	=41	=41	=41	=41	=41	=41	=41	=41	=41	=41	=41	=41	=41	=41	=41	=41	=41	=41	=41	=41
*^	*	*	*	*	*	*	*	*	*	*	*	*	*	*	*	*	*	*	*	*	*	*	*	*	*
2.BB-	2.AA\	8d/L	2D\	.	wes-	wes-	2D/	.	wes-	wes-	2D/	.	wes-	wes-	2d/	.	wes-	wes-	2d/	.	wes-	wes-	2d/	.	wes-	wes-
.	.	8Fn</	.	.	.	.	.	.	.	.	.	.	.	.	.	.	.	.	.	.	.	.	.	.	.	.
.	.	8d/	.	.	.	.	.	.	.	.	.	.	.	.	.	.	.	.	.	.	.	.	.	.	.	.
.	.	8fny/	.	.	.	.	.	.	.	.	.	.	.	.	.	.	.	.	.	.	.	.	.	.	.	.
.	.	8d/	4D\	.	-przeć	-przeć,	4D/	.	-przeć	-przeć,	4D/	.	-przeć	-przeć,	4d/	.	-przeć	-przeć,	4d/	.	-przeć	-przeć,	4d/	.	-przeć	-przeć,
.	.	8F</J	.	.	.	.	.	.	.	.	.	.	.	.	.	.	.	.	.	.	.	.	.	.	.	.
!	!	!	!	!	!	!	!LO:LB:g=original	!	!	!	!	!	!	!	!	!	!	!	!	!	!	!	!	!	!	!
*v	*v	*	*	*	*	*	*	*	*	*	*	*	*	*	*	*	*	*	*	*	*	*	*	*	*	*
=42	=42	=42	=42	=42	=42	=42	=42	=42	=42	=42	=42	=42	=42	=42	=42	=42	=42	=42	=42	=42	=42	=42	=42	=42	=42
2.GG#X\	8d/L	2D\	.	ży-	ży-	2D/	.	ży-	ży-	2D/	.	ży-	ży-	2d/	.	ży-	ży-	2d/	.	ży-	ży-	2d/	.	ży-	ży-
.	8Fn</	.	.	.	.	.	.	.	.	.	.	.	.	.	.	.	.	.	.	.	.	.	.	.	.
.	8d/	.	.	.	.	.	.	.	.	.	.	.	.	.	.	.	.	.	.	.	.	.	.	.	.
.	8fny/	.	.	.	.	.	.	.	.	.	.	.	.	.	.	.	.	.	.	.	.	.	.	.	.
.	8d/	4D\	.	-wot	-wot	4D/	.	-wot	-wot	4D/	.	-wot	-wot	4d/	.	-wot	-wot	4d/	.	-wot	-wot	4d/	.	-wot	-wot
.	8F</J	.	.	.	.	.	.	.	.	.	.	.	.	.	.	.	.	.	.	.	.	.	.	.	.
!	!	!	!	!	!	!	!	!	!	!	!	!	!	!LO:LB:g=original	!	!	!	!	!	!	!	!	!	!	!
=43	=43	=43	=43	=43	=43	=43	=43	=43	=43	=43	=43	=43	=43	=43	=43	=43	=43	=43	=43	=43	=43	=43	=43	=43	=43
2.AA\	8d/L	4D\	.	dać	dać,	4D/	.	dać	dać,	4D/	.	dać	dać,	4d/	.	dać	dać,	4d/	.	dać	dać,	4d/	.	dać	dać,
.	8f#X/	.	.	.	.	.	.	.	.	.	.	.	.	.	.	.	.	.	.	.	.	.	.	.	.
.	8a/	4r	.	.	.	4r	.	.	.	4r	.	.	.	4r	.	.	.	4r	.	.	.	4r	.	.	.
.	8f#/	.	.	.	.	.	.	.	.	.	.	.	.	.	.	.	.	.	.	.	.	.	.	.	.
.	8d/	4AA/	.	Swą	Swą	4D/	.	Swą	Swą	4F#/	.	Swą	Swą	4A/	.	swą	Swą	4d/	.	Swą	Swą	4f#/	.	Swą	Swą
.	8f#/J	.	.	.	.	.	.	.	.	.	.	.	.	.	.	.	.	.	.	.	.	.	.	.	.
!	!	!LO:LB:g=original	!	!	!	!	!	!	!	!	!	!	!	!	!	!	!	!	!	!	!	!	!	!	!
=44	=44	=44	=44	=44	=44	=44	=44	=44	=44	=44	=44	=44	=44	=44	=44	=44	=44	=44	=44	=44	=44	=44	=44	=44	=44
2.AA/	8a\L	2D\	.	ra-	ra-	2F#/	.	ra-	ra-	2A/	.	ra-	ra-	2d/	.	ra-	ra-	2f#/	.	ra-	ra-	2a/	.	ra-	ra-
.	8f#\	.	.	.	.	.	.	.	.	.	.	.	.	.	.	.	.	.	.	.	.	.	.	.	.
.	8dd\	.	.	.	.	.	.	.	.	.	.	.	.	.	.	.	.	.	.	.	.	.	.	.	.
.	8a\	.	.	.	.	.	.	.	.	.	.	.	.	.	.	.	.	.	.	.	.	.	.	.	.
!	!	!	!	!	!	!	!	!	!	!LO:MO:mod=!null:null	!	!	!	!	!	!	!	!	!	!	!	!	!	!	!
!	!	!	!	!	!	!	!	!	!	!LO:TX:a:t=d	!	!	!	!	!	!	!	!	!	!	!	!	!	!	!
.	8ff#\	4F#\	.	-dą	-dą	4A/	.	-dą	-dą	4d 4B\	.	-dą	-dą	4f#/	.	-dą	-dą	4a/	.	-dą	-dą	4dd\	.	-dą	-dą
.	8dd\J	.	.	.	.	.	.	.	.	.	.	.	.	.	.	.	.	.	.	.	.	.	.	.	.
=45	=45	=45	=45	=45	=45	=45	=45	=45	=45	=45	=45	=45	=45	=45	=45	=45	=45	=45	=45	=45	=45	=45	=45	=45	=45
2.AA/	8a\L	2A\	.	wes-	wes-	2d\	.	wes-	wes-	2f#\	.	wes-	wes-	2a/	.	wes-	wes-	2dd\	.	wes-	wes-	2ff#\	.	wes-	wes-
.	8f#\	.	.	.	.	.	.	.	.	.	.	.	.	.	.	.	.	.	.	.	.	.	.	.	.
.	8dd\	.	.	.	.	.	.	.	.	.	.	.	.	.	.	.	.	.	.	.	.	.	.	.	.
.	8a\	.	.	.	.	.	.	.	.	.	.	.	.	.	.	.	.	.	.	.	.	.	.	.	.
.	8ff#\	4A\	.	-przeć	-przeć,	4d\	.	-przeć	-przeć,	4f#\	.	-przeć	-przeć,	4a/	.	-przeć	-przeć,	4dd\	.	-przeć	-przeć,	4ff#\	.	-przeć	-przeć,
.	8dd\J	.	.	.	.	.	.	.	.	.	.	.	.	.	.	.	.	.	.	.	.	.	.	.	.
!	!	!	!	!	!	!	!	!	!	!	!	!	!	!	!	!	!	!LO:LB:g=original	!	!	!	!	!	!	!
=46	=46	=46	=46	=46	=46	=46	=46	=46	=46	=46	=46	=46	=46	=46	=46	=46	=46	=46	=46	=46	=46	=46	=46	=46	=46
2.AA/	8aa\L	2A\	.	ży-	ży-	2e\	.	ży-	ży-	2g\	.	ży-	ży-	2a/	.	ży-	ży-	2cc#X\	.	ży-	ży-	2aa\	.	ży-	ży-
.	8gg\	.	.	.	.	.	.	.	.	.	.	.	.	.	.	.	.	.	.	.	.	.	.	.	.
.	8ee\	.	.	.	.	.	.	.	.	.	.	.	.	.	.	.	.	.	.	.	.	.	.	.	.
.	8cc#X\	.	.	.	.	.	.	.	.	.	.	.	.	.	.	.	.	.	.	.	.	.	.	.	.
.	8a\	4A\	.	-wot	-wot	4e\	.	-wot	-wot	4g\	.	-wot	-wot	4a/	.	-wot	-wot	4a/	.	-wot	-wot	4cc#X\	.	-wot	-wot
.	8cc#\J	.	.	.	.	.	.	.	.	.	.	.	.	.	.	.	.	.	.	.	.	.	.	.	.
=47	=47	=47	=47	=47	=47	=47	=47	=47	=47	=47	=47	=47	=47	=47	=47	=47	=47	=47	=47	=47	=47	=47	=47	=47	=47
4D\	8dd\L	4D\	.	dać	dać.	4d\	.	dać	dać.	4f#\	.	dać	dać.	4a/	.	dać	dać.	4dd\	.	dać	dać.	4dd\	.	dać	dać.
.	8cc#X\	.	.	.	.	.	.	.	.	.	.	.	.	.	.	.	.	.	.	.	.	.	.	.	.
4r	8ee\	4r	.	.	.	4r	.	.	.	4r	.	.	.	4r	.	.	.	4r	.	.	.	4r	.	.	.
.	8dd\	.	.	.	.	.	.	.	.	.	.	.	.	.	.	.	.	.	.	.	.	.	.	.	.
4r	8ccn\	4r	.	.	.	4r	.	.	.	4r	.	.	.	4r	.	.	.	4r	.	.	.	4r	.	.	.
.	8b\J	.	.	.	.	.	.	.	.	.	.	.	.	.	.	.	.	.	.	.	.	.	.	.	.
!LO:PB:g=original	!LO:PB:g=original	!	!	!	!	!	!	!	!	!	!	!	!	!	!	!	!	!	!	!	!	!	!	!	!
=48	=48	=48	=48	=48	=48	=48	=48	=48	=48	=48	=48	=48	=48	=48	=48	=48	=48	=48	=48	=48	=48	=48	=48	=48	=48
!	!LO:MO:mod=!LO&colon;TX&colon;a&colon;i&colon;t=Tasto solo	!LO:MO:mod=!null:null	!	!	!	!LO:MO:mod=!null:null	!	!	!	!LO:MO:mod=!null:null	!	!	!	!LO:MO:mod=!null:null	!	!	!	!LO:MO:mod=!null:null	!	!	!	!LO:MO:mod=!null:null	!	!	!
!	!LO:TX:a:i:t=tasto solo	!LO:TX:a:t=1	!	!	!	!LO:TX:a:t=1	!	!	!	!LO:TX:a:t=1	!	!	!	!LO:TX:a:t=1	!	!	!	!LO:TX:a:t=1	!	!	!	!LO:TX:a:t=1	!	!	!
2.r	8dd\L	2.r	.	.	.	2.r	.	.	.	2.r	.	.	.	2.r	.	.	.	2.r	.	.	.	2.r	.	.	.
.	8cc\	.	.	.	.	.	.	.	.	.	.	.	.	.	.	.	.	.	.	.	.	.	.	.	.
.	8b\	.	.	.	.	.	.	.	.	.	.	.	.	.	.	.	.	.	.	.	.	.	.	.	.
.	8cc\	.	.	.	.	.	.	.	.	.	.	.	.	.	.	.	.	.	.	.	.	.	.	.	.
.	8e\	.	.	.	.	.	.	.	.	.	.	.	.	.	.	.	.	.	.	.	.	.	.	.	.
.	8f#\J	.	.	.	.	.	.	.	.	.	.	.	.	.	.	.	.	.	.	.	.	.	.	.	.
=49	=49	=49	=49	=49	=49	=49	=49	=49	=49	=49	=49	=49	=49	=49	=49	=49	=49	=49	=49	=49	=49	=49	=49	=49	=49
2.GG/	8g/L	4r	.	.	.	4r	.	.	.	4r	.	.	.	4r	.	.	.	4r	.	.	.	4r	.	.	.
.	8B/	.	.	.	.	.	.	.	.	.	.	.	.	.	.	.	.	.	.	.	.	.	.	.	.
.	8d/	4r	.	.	.	4r	.	.	.	4r	.	.	.	4r	.	.	.	4r	.	.	.	4r	.	.	.
.	8g/	.	.	.	.	.	.	.	.	.	.	.	.	.	.	.	.	.	.	.	.	.	.	.	.
.	8b/	4G\	.	Sa-	Sa-	4B\	.	Sa-	Sa-	4d\	.	Sa-	Sa-	4g/	.	Sa-	Sa-	4b\	.	Sa-	Sa-	4dd\	.	Sa-	Sa-
.	8g/J	.	.	.	.	.	.	.	.	.	.	.	.	.	.	.	.	.	.	.	.	.	.	.	.
=50	=50	=50	=50	=50	=50	=50	=50	=50	=50	=50	=50	=50	=50	=50	=50	=50	=50	=50	=50	=50	=50	=50	=50	=50	=50
2.GG/	8d/L	2G\	.	-me-	-me-	2B\	.	-me-	-me-	2d\	.	-me-	-me-	2g/	.	-me-	-me-	2b\	.	-me-	-me-	2dd\	.	-me-	-me-
.	8B/	.	.	.	.	.	.	.	.	.	.	.	.	.	.	.	.	.	.	.	.	.	.	.	.
.	8d/	.	.	.	.	.	.	.	.	.	.	.	.	.	.	.	.	.	.	.	.	.	.	.	.
.	8g/	.	.	.	.	.	.	.	.	.	.	.	.	.	.	.	.	.	.	.	.	.	.	.	.
.	8b/	4G\	.	-mu	-mu	4B\	.	-mu	-mu	4d\	.	-mu	-mu	4g/	.	-mu	-mu	4b\	.	-mu	-mu	4dd\	.	-mu	-mu
.	8g/J	.	.	.	.	.	.	.	.	.	.	.	.	.	.	.	.	.	.	.	.	.	.	.	.
=51	=51	=51	=51	=51	=51	=51	=51	=51	=51	=51	=51	=51	=51	=51	=51	=51	=51	=51	=51	=51	=51	=51	=51	=51	=51
2.GG/	8d/L	2G\	.	Bo-	Bo-	2B\	.	Bo-	Bo-	2g\	.	Bo-	Bo-	2g/	.	Bo-	Bo-	2b\	.	Bo-	Bo-	2gg\	.	Bo-	Bo-
.	8B/	.	.	.	.	.	.	.	.	.	.	.	.	.	.	.	.	.	.	.	.	.	.	.	.
.	8d/	.	.	.	.	.	.	.	.	.	.	.	.	.	.	.	.	.	.	.	.	.	.	.	.
.	8g/	.	.	.	.	.	.	.	.	.	.	.	.	.	.	.	.	.	.	.	.	.	.	.	.
.	8b/	4G\	.	-gu	-gu	4B\	.	-gu	-gu	4d\	.	-gu	-gu	4g/	.	-gu	-gu	4b\	.	-gu	-gu	4dd\	.	-gu	-gu
.	8g/J	.	.	.	.	.	.	.	.	.	.	.	.	.	.	.	.	.	.	.	.	.	.	.	.
=52	=52	=52	=52	=52	=52	=52	=52	=52	=52	=52	=52	=52	=52	=52	=52	=52	=52	=52	=52	=52	=52	=52	=52	=52	=52
8G\L	8B/L	(8G\L	.	złóż-	złóż-	(4G/	.	złóż-	złóż-	(4B\	.	złóż-	złóż-	(8g/L	.	złóż-	złóż-	(4g/	.	złóż-	złóż-	(4b\	.	złóż-	złóż-
!	!	!	!	!	!	!	!	!	!	!	!	!	!	!LO:SIC:s=8e/J:v	!	!	!	!	!	!	!	!	!	!	!
8E\J	8g/	8E\J	.	.	.	.	.	.	.	.	.	.	.	8e/J)	.	.	.	.	.	.	.	.	.	.	.
!	!	!	!	!	!	!	!	!	!	!	!	!	!	!LO:SIC:s=4c/):v	!	!	!	!	!	!	!	!	!	!	!
4C\	8c/	4C\)	.	.	.	4A/)	.	.	.	4c\)	.	.	.	4c/	.	.	.	4a/)	.	.	.	4cc\)	.	.	.
.	8a/	.	.	.	.	.	.	.	.	.	.	.	.	.	.	.	.	.	.	.	.	.	.	.	.
4D\	8c/	4D\	.	-my	-my	4F#/	.	-my	-my	4A/	.	-my	-my	4d/	.	-my	-my	4f#/	.	-my	-my	4a/	.	-my	-my
.	8f#/J	.	.	.	.	.	.	.	.	.	.	.	.	.	.	.	.	.	.	.	.	.	.	.	.
=53	=53	=53	=53	=53	=53	=53	=53	=53	=53	=53	=53	=53	=53	=53	=53	=53	=53	=53	=53	=53	=53	=53	=53	=53	=53
4G\	8B/L	4G\	.	cześć	cześć,	4G/	.	cześć	cześć,	4B\	.	cześć	cześć,	4g/	.	cześć	cześć,	4g/	.	cześć	cześć,	4b\	.	cześć	cześć,
.	8d/	.	.	.	.	.	.	.	.	.	.	.	.	.	.	.	.	.	.	.	.	.	.	.	.
4r	8g/	4r	.	.	.	4r	.	.	.	4r	.	.	.	4r	.	.	.	4r	.	.	.	4r	.	.	.
.	8b/	.	.	.	.	.	.	.	.	.	.	.	.	.	.	.	.	.	.	.	.	.	.	.	.
4BB/	8g/	4BB/	.	Sa-	sa-	4D/	.	Sa-	sa-	4G/	.	Sa-	sa-	4B/	.	sa-	sa-	4d/	.	Sa-	sa-	4g/	.	Sa-	sa-
.	8d/J	.	.	.	.	.	.	.	.	.	.	.	.	.	.	.	.	.	.	.	.	.	.	.	.
=54	=54	=54	=54	=54	=54	=54	=54	=54	=54	=54	=54	=54	=54	=54	=54	=54	=54	=54	=54	=54	=54	=54	=54	=54	=54
2C/	8e/L	2C/	.	-me-	-me-	2C/	.	-me-	-me-	2E/	.	-me-	-me-	2c/	.	-me-	-me-	2c/	.	-me-	-me-	2e/	.	-me-	-me-
.	8c/	.	.	.	.	.	.	.	.	.	.	.	.	.	.	.	.	.	.	.	.	.	.	.	.
.	8e/	.	.	.	.	.	.	.	.	.	.	.	.	.	.	.	.	.	.	.	.	.	.	.	.
.	8g/	.	.	.	.	.	.	.	.	.	.	.	.	.	.	.	.	.	.	.	.	.	.	.	.
4BB/	8d/	4BB/	.	-mu	-mu	4D/	.	-mu	-mu	4G/	.	-mu	-mu	4B/	.	-mu	-mu	4d/	.	-mu	-mu	4g/	.	-mu	-mu
.	8g/J	.	.	.	.	.	.	.	.	.	.	.	.	.	.	.	.	.	.	.	.	.	.	.	.
=55	=55	=55	=55	=55	=55	=55	=55	=55	=55	=55	=55	=55	=55	=55	=55	=55	=55	=55	=55	=55	=55	=55	=55	=55	=55
4AA/	8c/L	(4AA/	.	Bo-	Bo-	2E/	.	Bo-	Bo-	2c\	.	Bo-	Bo-	4A/	.	Bo-	Bo-	2e/	.	Bo-	Bo-	2cc\	.	Bo-	Bo-
.	8e/	.	.	.	.	.	.	.	.	.	.	.	.	.	.	.	.	.	.	.	.	.	.	.	.
4C/	8a/	4C/)	.	.	.	.	.	.	.	.	.	.	.	4c/	.	.	.	.	.	.	.	.	.	.	.
.	8cc/	.	.	.	.	.	.	.	.	.	.	.	.	.	.	.	.	.	.	.	.	.	.	.	.
4E\	8g/	4E\	.	-gu	-gu	4G/	.	-gu	-gu	4c\	.	-gu	-gu	4e/	.	-gu	-gu	4g/	.	-gu	-gu	4cc\	.	-gu	-gu
.	8cc/J	.	.	.	.	.	.	.	.	.	.	.	.	.	.	.	.	.	.	.	.	.	.	.	.
!	!	!	!	!	!	!	!	!	!	!	!	!	!	!	!	!	!	!	!	!	!	!LO:LB:g=original	!	!	!
=56	=56	=56	=56	=56	=56	=56	=56	=56	=56	=56	=56	=56	=56	=56	=56	=56	=56	=56	=56	=56	=56	=56	=56	=56	=56
2.D\	8f#/L	2D\	.	złóż-	złóż-	2F#/	.	złóż-	złóż-	(4.c\	.	złóż-	złóż-	2d/	.	złóż-	złóż-	2f#/	.	złóż-	złóż-	(4.cc\	.	złóż-	złóż-
.	8cc/	.	.	.	.	.	.	.	.	.	.	.	.	.	.	.	.	.	.	.	.	.	.	.	.
.	8a/	.	.	.	.	.	.	.	.	.	.	.	.	.	.	.	.	.	.	.	.	.	.	.	.
.	8f#/	.	.	.	.	.	.	.	.	8B\)	.	.	.	.	.	.	.	.	.	.	.	8b\)	.	.	.
.	8d/	4D\	.	-my	-my	4F#/	.	-my	-my	8c\L	.	-my	-my	4d/	.	-my	-my	4f#/	.	-my	-my	8cc\L	.	-my	-my
.	8f#/J	.	.	.	.	.	.	.	.	8d\J	.	.	.	.	.	.	.	.	.	.	.	8dd\J	.	.	.
=57	=57	=57	=57	=57	=57	=57	=57	=57	=57	=57	=57	=57	=57	=57	=57	=57	=57	=57	=57	=57	=57	=57	=57	=57	=57
!LO:MO:mod=!null:null	!	!	!	!	!	!	!	!	!	!	!	!	!	!	!	!	!	!	!	!	!	!	!	!	!
!LO:N:vis=2	!	!	!	!	!	!	!	!	!	!	!	!	!	!	!	!	!	!	!	!	!	!	!	!	!
2.GG/	8g/L	4G\	.	cześć	cześć.	4G/	.	cześć	cześć.	4B\	.	cześć	cześć.	4g/	.	cześć	cześć.	4g/	.	cześć	cześć.	4b\	.	cześć	cześć.
.	8b/	.	.	.	.	.	.	.	.	.	.	.	.	.	.	.	.	.	.	.	.	.	.	.	.
.	8g/	4r	.	.	.	4r	.	.	.	4r	.	.	.	4r	.	.	.	4r	.	.	.	4r	.	.	.
.	8d/	.	.	.	.	.	.	.	.	.	.	.	.	.	.	.	.	.	.	.	.	.	.	.	.
.	8B/	4G\	.	Za	Za	4r	.	.	.	4r	.	.	.	4r	.	.	.	4r	.	.	.	4r	.	.	.
.	8d/J	.	.	.	.	.	.	.	.	.	.	.	.	.	.	.	.	.	.	.	.	.	.	.	.
!LO:LB:g=original	!LO:LB:g=original	!	!	!	!	!	!	!	!	!LO:LB:g=original	!	!	!	!LO:LB:g=original	!	!	!	!	!	!	!	!	!	!	!
=58	=58	=58	=58	=58	=58	=58	=58	=58	=58	=58	=58	=58	=58	=58	=58	=58	=58	=58	=58	=58	=58	=58	=58	=58	=58
2.C 2.CC/	8c/L	2c\	.	ła-	ła-	4r	.	.	.	4r	.	.	.	4r	.	.	.	4r	.	.	.	4r	.	.	.
.	8e/	.	.	.	.	.	.	.	.	.	.	.	.	.	.	.	.	.	.	.	.	.	.	.	.
.	8g/	.	.	.	.	4r	.	.	.	4r	.	.	.	4r	.	.	.	4r	.	.	.	4r	.	.	.
.	8cc/	.	.	.	.	.	.	.	.	.	.	.	.	.	.	.	.	.	.	.	.	.	.	.	.
.	8g/	4C/	.	-skę	-skę	4c\	.	Za	Za	4e\	.	Za	Za	4g/	.	Za	Za	4cc\	.	Za	Za	4ee\	.	Za	Za
.	8e/J	.	.	.	.	.	.	.	.	.	.	.	.	.	.	.	.	.	.	.	.	.	.	.	.
!	!	!LO:LB:g=original	!	!	!	!	!	!	!	!	!	!	!	!	!	!	!	!	!	!	!	!	!	!	!
=59	=59	=59	=59	=59	=59	=59	=59	=59	=59	=59	=59	=59	=59	=59	=59	=59	=59	=59	=59	=59	=59	=59	=59	=59	=59
2C 2CC/	8c/L	(2C\	.	Je-	Je-	2e\	.	ła-	ła-	2g\	.	ła-	ła-	2g/	.	ła-	ła-	2ee\	.	ła-	ła-	2gg\	.	ła-	ła-
.	8e/	.	.	.	.	.	.	.	.	.	.	.	.	.	.	.	.	.	.	.	.	.	.	.	.
.	8g/	.	.	.	.	.	.	.	.	.	.	.	.	.	.	.	.	.	.	.	.	.	.	.	.
.	8cc/	.	.	.	.	.	.	.	.	.	.	.	.	.	.	.	.	.	.	.	.	.	.	.	.
4E 4EE/	8g/	4E\	.	.	.	4c\	.	-skę	-skę	4e\	.	-skę	-skę	4g/	.	-skę	-skę	4cc\	.	-skę	-skę	4ee\	.	-skę	-skę
.	8e/J	.	.	.	.	.	.	.	.	.	.	.	.	.	.	.	.	.	.	.	.	.	.	.	.
=60	=60	=60	=60	=60	=60	=60	=60	=60	=60	=60	=60	=60	=60	=60	=60	=60	=60	=60	=60	=60	=60	=60	=60	=60	=60
2.G 2.GG\	8c/L	2G\)	.	.	.	2c\	.	Je-	Je-	2e\	.	Je-	Je-	2g/	.	Je-	Je-	2cc\	.	Je-	Je-	2ee\	.	Je-	Je-
.	8e/	.	.	.	.	.	.	.	.	.	.	.	.	.	.	.	.	.	.	.	.	.	.	.	.
.	8g/	.	.	.	.	.	.	.	.	.	.	.	.	.	.	.	.	.	.	.	.	.	.	.	.
.	8cc/	.	.	.	.	.	.	.	.	.	.	.	.	.	.	.	.	.	.	.	.	.	.	.	.
.	8d/	4G\	.	-go	-go	4B\	.	-go	-go	4d\	.	-go	-go	4g/	.	-go	-go	4b\	.	-go	-go	4dd\	.	-go	-go
.	8b/J	.	.	.	.	.	.	.	.	.	.	.	.	.	.	.	.	.	.	.	.	.	.	.	.
!	!	!	!	!	!	!	!	!	!	!	!	!	!	!	!	!	!	!LO:LB:g=original	!	!	!	!	!	!	!
=61	=61	=61	=61	=61	=61	=61	=61	=61	=61	=61	=61	=61	=61	=61	=61	=61	=61	=61	=61	=61	=61	=61	=61	=61	=61
4D 4DD/	8g/L	8D\L	.	dzię-	dzię-	8B\L	.	dzię-	dzię-	8d\L	.	dzię-	dzię-	8d/L	.	dzię-	dzię-	8b\L	.	dzię-	dzię-	8dd\L	.	dzię-	dzię-
.	8a/	8F#\J	.	.	.	8A\J	.	.	.	8c\J	.	.	.	8f#/J	.	.	.	8a\J	.	.	.	8cc\J	.	.	.
2G 2GG\	8b/	8G\	.	-ki	-ki,	8G/	.	-ki	-ki,	8B\	.	-ki	-ki,	8g/	.	-ki	-ki,	8g/	.	-ki	-ki,	8b\	.	-ki	-ki,
.	8g/	8r	.	.	.	8r	.	.	.	8r	.	.	.	8r	.	.	.	8r	.	.	.	8r	.	.	.
.	8d/	4G\	.	Za	za	4r	.	.	.	4r	.	.	.	4r	.	.	.	4r	.	.	.	4r	.	.	.
.	8B/J	.	.	.	.	.	.	.	.	.	.	.	.	.	.	.	.	.	.	.	.	.	.	.	.
=62	=62	=62	=62	=62	=62	=62	=62	=62	=62	=62	=62	=62	=62	=62	=62	=62	=62	=62	=62	=62	=62	=62	=62	=62	=62
2.C 2.CC/	8c/L	2c\	.	ła-	ła-	4r	.	.	.	4r	.	.	.	4r	.	.	.	4r	.	.	.	4r	.	.	.
.	8e/	.	.	.	.	.	.	.	.	.	.	.	.	.	.	.	.	.	.	.	.	.	.	.	.
.	8g/	.	.	.	.	4r	.	.	.	4r	.	.	.	4r	.	.	.	4r	.	.	.	4r	.	.	.
.	8cc/	.	.	.	.	.	.	.	.	.	.	.	.	.	.	.	.	.	.	.	.	.	.	.	.
.	8g/	4C/	.	-skę	-skę	4c\	.	Za	za	4e\	.	Za	za	4c/	.	Za	za	4cc\	.	Za	za	4ee\	.	Za	za
.	8e/J	.	.	.	.	.	.	.	.	.	.	.	.	.	.	.	.	.	.	.	.	.	.	.	.
!	!	!	!	!	!	!LO:LB:g=original	!	!	!	!	!	!	!	!	!	!	!	!	!	!	!	!	!	!	!
=63	=63	=63	=63	=63	=63	=63	=63	=63	=63	=63	=63	=63	=63	=63	=63	=63	=63	=63	=63	=63	=63	=63	=63	=63	=63
2C 2CC/	8c/L	(2C\	.	Je-	Je-	(4e\	.	ła-	ła-	(4g\	.	ła-	ła-	2c/	.	ła-	ła-	(4ee\	.	ła-	ła-	(4gg\	.	ła-	ła-
.	8e/	.	.	.	.	.	.	.	.	.	.	.	.	.	.	.	.	.	.	.	.	.	.	.	.
.	8d/	.	.	.	.	4d\)	.	.	.	4f#\)	.	.	.	.	.	.	.	4dd\)	.	.	.	4ff#\)	.	.	.
.	8f#/	.	.	.	.	.	.	.	.	.	.	.	.	.	.	.	.	.	.	.	.	.	.	.	.
4E 4EE/	8e/	4E\	.	.	.	4c\	.	-skę	-skę	4e\	.	-skę	-skę	4e/	.	-skę	-skę	4cc\	.	-skę	-skę	4ee\	.	-skę	-skę
.	8g/J	.	.	.	.	.	.	.	.	.	.	.	.	.	.	.	.	.	.	.	.	.	.	.	.
=64	=64	=64	=64	=64	=64	=64	=64	=64	=64	=64	=64	=64	=64	=64	=64	=64	=64	=64	=64	=64	=64	=64	=64	=64	=64
2G 2GG\	8d/L	2G\)	.	.	.	2B\	.	Je-	Je-	(4.d\	.	Je-	Je-	2g/	.	Je-	Je-	2b\	.	Je-	Je-	(4.dd\	.	Je-	Je-
.	8g/	.	.	.	.	.	.	.	.	.	.	.	.	.	.	.	.	.	.	.	.	.	.	.	.
.	8b/	.	.	.	.	.	.	.	.	.	.	.	.	.	.	.	.	.	.	.	.	.	.	.	.
.	8g/	.	.	.	.	.	.	.	.	8d#X\)	.	.	.	.	.	.	.	.	.	.	.	8dd#X\)	.	.	.
4C 4CC/	8e/	4C/	.	-go	-go	8c\L	.	-go	-go	8e\L	.	-go	-go	4c/	.	-go	-go	8cc\L	.	-go	-go	8ee\L	.	-go	-go
.	8a/J	.	.	.	.	8A\J	.	.	.	8c\J	.	.	.	.	.	.	.	8a\J	.	.	.	8cc\J	.	.	.
=65	=65	=65	=65	=65	=65	=65	=65	=65	=65	=65	=65	=65	=65	=65	=65	=65	=65	=65	=65	=65	=65	=65	=65	=65	=65
4D 4DD/	8f#/L	4D\	.	dzię-	dzię-	8F#/L	.	dzię-	dzię-	8A\L	.	dzię-	dzię-	4d/	.	dzię-	dzię-	8f#/L	.	dzię-	dzię-	8a/L	.	dzię-	dzię-
.	8c/	.	.	.	.	8A/J	.	.	.	8c\J	.	.	.	.	.	.	.	8a/J	.	.	.	8cc/J	.	.	.
4G 4GG\	8B/	8G\	.	-ki	-ki.	16G/	.	-ki	-ki.	8B\	.	-ki	-ki.	8g/	.	-ki	-ki.	16g/	.	-ki	-ki.	8b/	.	-ki	-ki.
.	.	.	.	.	.	16r	.	.	.	.	.	.	.	.	.	.	.	16r	.	.	.	.	.	.	.
.	8g/	8r	.	.	.	8B\	.	On	On	8r	.	.	.	8r	.	.	.	8g/	.	On	On	8r	.	.	.
4r	8d/	4r	.	.	.	8A#X\	.	nam	nam	4r	.	.	.	4r	.	.	.	8f#/	.	nam	nam	4r	.	.	.
.	8B/J	.	.	.	.	8B\	.	do-	do-	.	.	.	.	.	.	.	.	8g/	.	do-	do-	.	.	.	.
=66	=66	=66	=66	=66	=66	=66	=66	=66	=66	=66	=66	=66	=66	=66	=66	=66	=66	=66	=66	=66	=66	=66	=66	=66	=66
!	!	!LO:MO:mod=!null:null	!	!	!	!	!	!	!	!	!	!	!	!LO:MO:mod=!null:null	!	!	!	!	!	!	!	!	!	!	!
!	!	!LO:TX:a:t=1	!	!	!	!	!	!	!	!	!	!	!	!LO:TX:a:t=1	!	!	!	!	!	!	!	!	!	!	!
2.D 2.DD/	8A/L	2.r	.	.	.	4d\	.	-zwa-	-zwa-	4r	.	.	.	2.r	.	.	.	4b/	.	-zwa-	-zwa-	4r	.	.	.
.	8d/	.	.	.	.	.	.	.	.	.	.	.	.	.	.	.	.	.	.	.	.	.	.	.	.
.	8f#/	.	.	.	.	8c\	.	-la	-la,	8r	.	.	.	.	.	.	.	8a/	.	-la	-la,	8r	.	.	.
.	8a/	.	.	.	.	8r	.	.	.	8c\	.	On	On	.	.	.	.	8r	.	.	.	8a/	.	On	On
.	8f#/	.	.	.	.	4r	.	.	.	8B\	.	nam	nam	.	.	.	.	4r	.	.	.	8g#X/	.	nam	nam
.	8d/J	.	.	.	.	.	.	.	.	8c\	.	do-	do-	.	.	.	.	.	.	.	.	8a/	.	do-	do-
=67	=67	=67	=67	=67	=67	=67	=67	=67	=67	=67	=67	=67	=67	=67	=67	=67	=67	=67	=67	=67	=67	=67	=67	=67	=67
!	!	!	!	!	!	!LO:MO:mod=!null:null	!	!	!	!	!	!	!	!	!	!	!	!LO:MO:mod=!null:null	!	!	!	!	!	!	!
!	!	!	!	!	!	!LO:TX:a:t=2	!	!	!	!	!	!	!	!	!	!	!	!LO:TX:a:t=2	!	!	!	!	!	!	!
2.G 2.GG\	8B/L	4r	.	.	.	1.r	.	.	.	4e\	.	-zwa-	-zwa-	4r	.	.	.	1.r	.	.	.	4cc\	.	-zwa-	-zwa-
.	8d/	.	.	.	.	.	.	.	.	.	.	.	.	.	.	.	.	.	.	.	.	.	.	.	.
.	8g/	8r	.	.	.	.	.	.	.	8d\	.	-la	-la,	8r	.	.	.	.	.	.	.	8b\	.	-la	-la,
.	8b/	8G\	.	On	On	.	.	.	.	8r	.	.	.	8b/	.	On	On	.	.	.	.	8r	.	.	.
.	8g/	8B\	.	nam	nam	.	.	.	.	4r	.	.	.	8g/	.	nam	nam	.	.	.	.	4r	.	.	.
.	8d/J	8d\	.	do-	do-	.	.	.	.	.	.	.	.	8f#/	.	do-	do-	.	.	.	.	.	.	.	.
!LO:LB:g=original	!LO:LB:g=original	!	!	!	!	!	!	!	!	!	!	!	!	!	!	!	!	!	!	!	!	!	!	!	!
=68	=68	=68	=68	=68	=68	=68	=68	=68	=68	=68	=68	=68	=68	=68	=68	=68	=68	=68	=68	=68	=68	=68	=68	=68	=68
!	!	!	!	!	!	!	!	!	!	!LO:MO:mod=!null:null	!	!	!	!	!	!	!	!	!	!	!	!LO:MO:mod=!null:null	!	!	!
!	!	!	!	!	!	!	!	!	!	!LO:TX:a:t=2	!	!	!	!	!	!	!	!	!	!	!	!LO:TX:a:t=2	!	!	!
2C 2CC/	8c/L	4.c\	.	-zwa-	-zwa-	.	.	.	.	1.r	.	.	.	4.e/	.	-zwa-	-zwa-	.	.	.	.	1.r	.	.	.
.	8e/	.	.	.	.	.	.	.	.	.	.	.	.	.	.	.	.	.	.	.	.	.	.	.	.
.	8g/	.	.	.	.	.	.	.	.	.	.	.	.	.	.	.	.	.	.	.	.	.	.	.	.
.	8B/	8B\	.	-la	-la	.	.	.	.	.	.	.	.	8g/	.	-la	-la	.	.	.	.	.	.	.	.
4D 4DD/	8A/	8A\	.	ży-	ży-	.	.	.	.	.	.	.	.	8f#/	.	ży-	ży-	.	.	.	.	.	.	.	.
.	8f#/J	8c\	.	-cie	-cie	.	.	.	.	.	.	.	.	8a/	.	-cie	-cie	.	.	.	.	.	.	.	.
=69	=69	=69	=69	=69	=69	=69	=69	=69	=69	=69	=69	=69	=69	=69	=69	=69	=69	=69	=69	=69	=69	=69	=69	=69	=69
4G 4GG\	8B/L	4B\	.	wieść	wieść,	4r	.	.	.	.	.	.	.	4g/	.	wieść	wieść,	4r	.	.	.	.	.	.	.
.	8g/	.	.	.	.	.	.	.	.	.	.	.	.	.	.	.	.	.	.	.	.	.	.	.	.
4r	8b/	4r	.	.	.	8r	.	.	.	.	.	.	.	4r	.	.	.	8r	.	.	.	.	.	.	.
.	8g/	.	.	.	.	8B\	.	On	On	.	.	.	.	.	.	.	.	8g/	.	On	On	.	.	.	.
4r	8d/	4r	.	.	.	8A#X\	.	nam	nam	.	.	.	.	4r	.	.	.	8f#/	.	nam	nam	.	.	.	.
.	8B/J	.	.	.	.	8B\	.	do-	do-	.	.	.	.	.	.	.	.	8g/	.	do-	do-	.	.	.	.
=70	=70	=70	=70	=70	=70	=70	=70	=70	=70	=70	=70	=70	=70	=70	=70	=70	=70	=70	=70	=70	=70	=70	=70	=70	=70
!	!	!LO:MO:mod=!null:null	!	!	!	!	!	!	!	!	!	!	!	!LO:MO:mod=!null:null	!	!	!	!	!	!	!	!	!	!	!
!	!	!LO:TX:a:t=1	!	!	!	!	!	!	!	!	!	!	!	!LO:TX:a:t=1	!	!	!	!	!	!	!	!	!	!	!
2.D 2.DD/	8A/L	2.r	.	.	.	4d\	.	-zwa-	-zwa-	4r	.	.	.	2.r	.	.	.	4b/	.	-zwa-	-zwa-	4r	.	.	.
.	8d/	.	.	.	.	.	.	.	.	.	.	.	.	.	.	.	.	.	.	.	.	.	.	.	.
.	8f#/	.	.	.	.	8c\	.	-la	-la	8r	.	.	.	.	.	.	.	8a/	.	-la	-la	8r	.	.	.
.	8a/	.	.	.	.	8r	.	.	.	8c\	.	On	On	.	.	.	.	8r	.	.	.	8a/	.	On	On
.	8f#/	.	.	.	.	4r	.	.	.	8B\	.	nam	nam	.	.	.	.	4r	.	.	.	8g#X/	.	nam	nam
.	8d/J	.	.	.	.	.	.	.	.	8c\	.	do-	do-	.	.	.	.	.	.	.	.	8a/	.	do-	do-
!	!	!	!	!	!	!	!	!	!	!	!	!	!	!	!	!	!	!	!	!	!	!LO:LB:g=original	!	!	!
=71	=71	=71	=71	=71	=71	=71	=71	=71	=71	=71	=71	=71	=71	=71	=71	=71	=71	=71	=71	=71	=71	=71	=71	=71	=71
!	!	!	!	!	!	!LO:MO:mod=!null:null	!	!	!	!	!	!	!	!	!	!	!	!LO:MO:mod=!null:null	!	!	!	!	!	!	!
!	!	!	!	!	!	!LO:TX:a:t=2	!	!	!	!	!	!	!	!	!	!	!	!LO:TX:a:t=2	!	!	!	!	!	!	!
2.G 2.GG\	8B/L	4r	.	.	.	1.r	.	.	.	4e\	.	-zwa-	-zwa-	4r	.	.	.	1.r	.	.	.	4cc\	.	-zwa-	-zwa-
.	8d/	.	.	.	.	.	.	.	.	.	.	.	.	.	.	.	.	.	.	.	.	.	.	.	.
.	8g/	8r	.	.	.	.	.	.	.	8d\	.	-la	-la	8r	.	.	.	.	.	.	.	8b\	.	-la	-la
.	8b/	8G\	.	On	On	.	.	.	.	8r	.	.	.	8b/	.	On	On	.	.	.	.	8r	.	.	.
.	8g/	8B\	.	nam	nam	.	.	.	.	4r	.	.	.	8g/	.	nam	nam	.	.	.	.	4r	.	.	.
.	8d/J	8d\	.	do-	do-	.	.	.	.	.	.	.	.	8f#/	.	do-	do-	.	.	.	.	.	.	.	.
!	!	!	!	!	!	!	!	!	!	!	!	!	!	!LO:LB:g=original	!	!	!	!	!	!	!	!	!	!	!
=72	=72	=72	=72	=72	=72	=72	=72	=72	=72	=72	=72	=72	=72	=72	=72	=72	=72	=72	=72	=72	=72	=72	=72	=72	=72
!	!	!	!	!	!	!	!	!	!	!LO:MO:mod=!null:null	!	!	!	!	!	!	!	!	!	!	!	!LO:MO:mod=!null:null	!	!	!
!	!	!	!	!	!	!	!	!	!	!LO:TX:a:t=1	!	!	!	!	!	!	!	!	!	!	!	!LO:TX:a:t=1	!	!	!
2C 2CC/	8c/L	4.c\	.	-zwa-	-zwa-	.	.	.	.	2.r	.	.	.	4.e/	.	-zwa-	-zwa-	.	.	.	.	2.r	.	.	.
.	8e/	.	.	.	.	.	.	.	.	.	.	.	.	.	.	.	.	.	.	.	.	.	.	.	.
.	8g/	.	.	.	.	.	.	.	.	.	.	.	.	.	.	.	.	.	.	.	.	.	.	.	.
.	8B/	8B\	.	-la	-la	.	.	.	.	.	.	.	.	8g/	.	-la	-la	.	.	.	.	.	.	.	.
4D 4DD/	8A/	8A\	.	ży-	ży-	.	.	.	.	.	.	.	.	8f#/	.	ży-	ży-	.	.	.	.	.	.	.	.
.	8f#/J	8c\	.	-cie	-cie	.	.	.	.	.	.	.	.	8a/	.	-cie	-cie	.	.	.	.	.	.	.	.
!	!	!LO:LB:g=original	!	!	!	!	!	!	!	!	!	!	!	!	!	!	!	!LO:LB:g=original	!	!	!	!	!	!	!
=73	=73	=73	=73	=73	=73	=73	=73	=73	=73	=73	=73	=73	=73	=73	=73	=73	=73	=73	=73	=73	=73	=73	=73	=73	=73
!	!	!	!	!	!	!	!LO:DY:b	!	!	!	!	!	!	!	!	!	!	!	!	!	!	!	!	!	!
!	!	!	!	!	!	!	!LO:MO:mod=!null:null	!	!	!	!	!	!	!	!	!	!	!	!	!	!	!	!	!	!
2G 2GG\	8B/L	4B\	.	wieść	wieść	4r	f	.	.	4r	.	.	.	4g/	.	wieść	wieść	4r	.	.	.	4r	.	.	.
.	8d/	.	.	.	.	.	.	.	.	.	.	.	.	.	.	.	.	.	.	.	.	.	.	.	.
!	!	!	!	!	!	!	!	!	!	!	!	!	!	!	!	!	!	!	!LO:DY:b	!	!	!	!LO:DY:b	!	!
!	!	!	!	!	!	!	!	!	!	!	!	!	!	!	!	!	!	!	!LO:MO:mod=!null:null	!	!	!	!	!	!
!	!	!	!	!	!	!	!	!	!	!	!	!	!	!	!	!	!	!	!	!	!	!	!LO:MO:mod=!null:null	!	!
.	8g/	8r	.	.	.	8r	.	.	.	8r	.	.	.	8r	.	.	.	8r	f	.	.	8r	f	.	.
!	!	!	!LO:DY:b:rj	!	!	!	!	!	!	!	!	!	!	!	!LO:DY:b:rj	!	!	!	!	!	!	!	!	!	!
!	!	!	!	!	!	!	!LO:DY:t= :mod=%s	!	!	!	!	!	!	!	!	!	!	!	!	!	!	!	!	!	!
!	!	!	!	!	!	!	!LO:MO:mod=!LO&colon;DY&colon;ed=	!	!	!	!	!	!	!	!	!	!	!	!	!	!	!	!	!	!
!	!	!	!	!	!	!	!	!	!	!	!LO:DY:t= :mod=%s	!	!	!	!	!	!	!	!	!	!	!	!	!	!
!	!	!	!	!	!	!	!	!	!	!	!LO:MO:mod=!LO&colon;DY&colon;ed=brack	!	!	!	!	!	!	!	!	!	!	!	!	!	!
!	!	!	!	!	!	!	!	!	!	!	!	!	!	!	!	!	!	!	!LO:DY:t= :mod=%s	!	!	!	!	!	!
!	!	!	!	!	!	!	!	!	!	!	!	!	!	!	!	!	!	!	!LO:MO:mod=!LO&colon;DY&colon;ed=	!	!	!	!	!	!
!	!	!	!	!	!	!	!	!	!	!	!	!	!	!	!	!	!	!	!	!	!	!	!LO:DY:t= :mod=%s	!	!
!	!	!	!	!	!	!	!	!	!	!	!	!	!	!	!	!	!	!	!	!	!	!	!LO:MO:mod=!LO&colon;DY&colon;ed=	!	!
!	!	!	!	!	!	!	!null	!	!	!	!null	!	!	!	!	!	!	!	!null	!	!	!	!null	!	!
.	8b/	8B\	f	bez	bez	8B\	f	bez	bez	8B\	f	bez	bez	8b\	f	bez	bez	8b\	f	bez	bez	8b\	f	bez	bez
4E 4EE\	8g/	8B\	.	nie-	nie-	8B\	.	nie-	nie-	8B\	.	nie-	nie-	8b\	.	nie-	nie-	8b\	.	nie-	nie-	8b\	.	nie-	nie-
.	8c#X/J	8c#X\	.	-bez-	-bez-	8c#X\	.	-bez-	-bez-	8c#X\	.	-bez-	-bez-	8cc#X\	.	-bez-	-bez-	8cc#X\	.	-bez-	-bez-	8cc#X\	.	-bez-	-bez-
=74	=74	=74	=74	=74	=74	=74	=74	=74	=74	=74	=74	=74	=74	=74	=74	=74	=74	=74	=74	=74	=74	=74	=74	=74	=74
2.D 2.DD/	8d/L	4d\	.	-pie-	-pie-	4d\	.	-pie-	-pie-	4d\	.	-pie-	-pie-	4dd\	.	-pie-	-pie-	4dd\	.	-pie-	-pie-	4dd\	.	-pie-	-pie-
.	8f#/	.	.	.	.	.	.	.	.	.	.	.	.	.	.	.	.	.	.	.	.	.	.	.	.
.	8a/	4D\	.	-czeńśtw	-czeńśtw	4D/	.	-czeństw	-czeństw	4D/	.	-czeństw	-czeństw	4d/	.	-czeństw	-czeństw	4d/	.	-czeństw	-czeństw	4d/	.	-czeństw	-czeństw
.	8e#X/	.	.	.	.	.	.	.	.	.	.	.	.	.	.	.	.	.	.	.	.	.	.	.	.
.	8f#/	4r	.	.	.	4r	.	.	.	4r	.	.	.	4r	.	.	.	4r	.	.	.	4r	.	.	.
.	8d/J	.	.	.	.	.	.	.	.	.	.	.	.	.	.	.	.	.	.	.	.	.	.	.	.
=75	=75	=75	=75	=75	=75	=75	=75	=75	=75	=75	=75	=75	=75	=75	=75	=75	=75	=75	=75	=75	=75	=75	=75	=75	=75
4E-X 4EE-X\	8c#X/L	4E-X\	.	mę-	mę-	4E-X/	.	mę-	mę-	4E-X/	.	mę-	mę-	4e-X/	.	mę-	mę-	4e-X/	.	mę-	mę-	4e-X/	.	mę-	mę-
.	8g/	.	.	.	.	.	.	.	.	.	.	.	.	.	.	.	.	.	.	.	.	.	.	.	.
4D 4DD/	8f#/	4D\	.	-ki	-ki.	4D/	.	-ki	-ki.	4D/	.	-ki	-ki.	4d/	.	-ki	-ki.	4d/	.	-ki	-ki.	4d/	.	-ki	-ki.
.	8d/	.	.	.	.	.	.	.	.	.	.	.	.	.	.	.	.	.	.	.	.	.	.	.	.
4r	8f#/	4r	.	.	.	4r	.	.	.	4r	.	.	.	4r	.	.	.	4r	.	.	.	4r	.	.	.
.	8a/J	.	.	.	.	.	.	.	.	.	.	.	.	.	.	.	.	.	.	.	.	.	.	.	.
!	!	!	!	!	!	!	!	!	!	!LO:LB:g=original	!	!	!	!	!	!	!	!	!	!	!	!	!	!	!
=76	=76	=76	=76	=76	=76	=76	=76	=76	=76	=76	=76	=76	=76	=76	=76	=76	=76	=76	=76	=76	=76	=76	=76	=76	=76
!	!LO:MO:mod=!LO&colon;TX&colon;a&colon;i&colon;t=Tasto solo	!LO:MO:mod=!null:null	!	!	!	!LO:MO:mod=!null:null	!	!	!	!LO:MO:mod=!null:null	!	!	!	!LO:MO:mod=!null:null	!	!	!	!LO:MO:mod=!null:null	!	!	!	!LO:MO:mod=!null:null	!	!	!
!	!LO:TX:a:i:t=Tasto	!LO:TX:a:t=3	!	!	!	!LO:TX:a:t=3	!	!	!	!LO:TX:a:t=3	!	!	!	!LO:TX:a:t=3	!	!	!	!LO:TX:a:t=3.	!	!	!	!LO:TX:a:t=3	!	!	!
[2.c [2.A [2.F# [2.D\	8dd\L	1.r	.	.	.	1.r	.	.	.	1.r	.	.	.	1.r	.	.	.	1.r	.	.	.	1.r	.	.	.
.	8dd#X\	.	.	.	.	.	.	.	.	.	.	.	.	.	.	.	.	.	.	.	.	.	.	.	.
.	8ff#\	.	.	.	.	.	.	.	.	.	.	.	.	.	.	.	.	.	.	.	.	.	.	.	.
.	8ee\	.	.	.	.	.	.	.	.	.	.	.	.	.	.	.	.	.	.	.	.	.	.	.	.
.	8ddn\	.	.	.	.	.	.	.	.	.	.	.	.	.	.	.	.	.	.	.	.	.	.	.	.
.	8cc\J	.	.	.	.	.	.	.	.	.	.	.	.	.	.	.	.	.	.	.	.	.	.	.	.
=77	=77	=77	=77	=77	=77	=77	=77	=77	=77	=77	=77	=77	=77	=77	=77	=77	=77	=77	=77	=77	=77	=77	=77	=77	=77
!	!LO:MO:mod=!null:null	!	!	!	!	!	!	!	!	!	!	!	!	!	!	!	!	!	!	!	!	!	!	!	!
!	!LO:TX:a:i:t=solo Organo	!	!	!	!	!	!	!	!	!	!	!	!	!	!	!	!	!	!	!	!	!	!	!	!
2.c_ 2.A_ 2.F#_ 2.D\_	8b\L	.	.	.	.	.	.	.	.	.	.	.	.	.	.	.	.	.	.	.	.	.	.	.	.
.	8cc\	.	.	.	.	.	.	.	.	.	.	.	.	.	.	.	.	.	.	.	.	.	.	.	.
.	8ee\	.	.	.	.	.	.	.	.	.	.	.	.	.	.	.	.	.	.	.	.	.	.	.	.
.	8dd\	.	.	.	.	.	.	.	.	.	.	.	.	.	.	.	.	.	.	.	.	.	.	.	.
.	8cc\	.	.	.	.	.	.	.	.	.	.	.	.	.	.	.	.	.	.	.	.	.	.	.	.
.	8b\J	.	.	.	.	.	.	.	.	.	.	.	.	.	.	.	.	.	.	.	.	.	.	.	.
=78	=78	=78	=78	=78	=78	=78	=78	=78	=78	=78	=78	=78	=78	=78	=78	=78	=78	=78	=78	=78	=78	=78	=78	=78	=78
4c] 4A] 4F#] 4D\]	8a/L	2.r	.	.	.	2.r	.	.	.	2.r	.	.	.	2.r	.	.	.	2.r	.	.	.	2.r	.	.	.
.	8b/	.	.	.	.	.	.	.	.	.	.	.	.	.	.	.	.	.	.	.	.	.	.	.	.
4r	8dd/	.	.	.	.	.	.	.	.	.	.	.	.	.	.	.	.	.	.	.	.	.	.	.	.
.	8cc/	.	.	.	.	.	.	.	.	.	.	.	.	.	.	.	.	.	.	.	.	.	.	.	.
4r	8e/	.	.	.	.	.	.	.	.	.	.	.	.	.	.	.	.	.	.	.	.	.	.	.	.
.	8f#/J	.	.	.	.	.	.	.	.	.	.	.	.	.	.	.	.	.	.	.	.	.	.	.	.
=79	=79	=79	=79	=79	=79	=79	=79	=79	=79	=79	=79	=79	=79	=79	=79	=79	=79	=79	=79	=79	=79	=79	=79	=79	=79
2.GG/	8g/L	4r	.	.	.	4r	.	.	.	4r	.	.	.	4r	.	.	.	4r	.	.	.	4r	.	.	.
.	8B/	.	.	.	.	.	.	.	.	.	.	.	.	.	.	.	.	.	.	.	.	.	.	.	.
.	8d/	4r	.	.	.	4r	.	.	.	4r	.	.	.	4r	.	.	.	4r	.	.	.	4r	.	.	.
.	8g/	.	.	.	.	.	.	.	.	.	.	.	.	.	.	.	.	.	.	.	.	.	.	.	.
!	!	!	!	!	!	!	!	!	!	!	!	!	!	!LO:MO:mod=!null:null	!	!	!	!	!	!	!	!	!	!	!
!	!	!	!	!	!	!	!	!	!	!	!	!	!	!LO:TX:b:t=g	!	!	!	!	!	!	!	!	!	!	!
.	8b/	4G\	.	On	On	4B\	.	On	On	4d\	.	On	On	4g\	.	On	On	4b\	.	On	On	4dd\	.	On	On
.	8g/J	.	.	.	.	.	.	.	.	.	.	.	.	.	.	.	.	.	.	.	.	.	.	.	.
=80	=80	=80	=80	=80	=80	=80	=80	=80	=80	=80	=80	=80	=80	=80	=80	=80	=80	=80	=80	=80	=80	=80	=80	=80	=80
2.GG/	8d/L	2G\	.	go-	go-	2B\	.	go-	go-	2d\	.	go-	go-	2g/	.	go-	go-	2b\	.	go-	go-	2dd\	.	go-	go-
.	8B/	.	.	.	.	.	.	.	.	.	.	.	.	.	.	.	.	.	.	.	.	.	.	.	.
.	8d/	.	.	.	.	.	.	.	.	.	.	.	.	.	.	.	.	.	.	.	.	.	.	.	.
.	8g/	.	.	.	.	.	.	.	.	.	.	.	.	.	.	.	.	.	.	.	.	.	.	.	.
.	8b/	4G\	.	-tów	-tów	4B\	.	-tów	-tów	4d\	.	-tów	-tów	4g/	.	-tów	-tów	4b\	.	-tów	-tów	4dd\	.	-tów	-tów
.	8g/J	.	.	.	.	.	.	.	.	.	.	.	.	.	.	.	.	.	.	.	.	.	.	.	.
=81	=81	=81	=81	=81	=81	=81	=81	=81	=81	=81	=81	=81	=81	=81	=81	=81	=81	=81	=81	=81	=81	=81	=81	=81	=81
2.GG/	8d/L	2G\	.	zaw-	za-	2B\	.	zaw-	za-	2g\	.	zaw-	za-	2g/	.	zaw-	za-	2b\	.	zaw-	za-	2gg\	.	zaw-	zw-
.	8B/	.	.	.	.	.	.	.	.	.	.	.	.	.	.	.	.	.	.	.	.	.	.	.	.
.	8d/	.	.	.	.	.	.	.	.	.	.	.	.	.	.	.	.	.	.	.	.	.	.	.	.
.	8g/	.	.	.	.	.	.	.	.	.	.	.	.	.	.	.	.	.	.	.	.	.	.	.	.
.	8b/	4G\	.	-sze	-wsze	4B\	.	-sze	-wsze	4d\	.	-sze	-wsze	4g/	.	-sze	-wsze	4b\	.	-sze	-wsze	4dd\	.	-sze	-wsze
.	8g/J	.	.	.	.	.	.	.	.	.	.	.	.	.	.	.	.	.	.	.	.	.	.	.	.
=82	=82	=82	=82	=82	=82	=82	=82	=82	=82	=82	=82	=82	=82	=82	=82	=82	=82	=82	=82	=82	=82	=82	=82	=82	=82
8G\L	8B/L	(8G\L	.	po-	po-	(4G/	.	po-	po-	(4B\	.	po-	po-	(8g/L	.	po-	po-	(4g/	.	po-	po-	(4b\	.	po-	po-
!	!	!	!	!	!	!	!	!	!	!	!	!	!	!LO:SIC:s=8e/J:v	!	!	!	!	!	!	!	!	!	!	!
8E\J	8g/	8E\J	.	.	.	.	.	.	.	.	.	.	.	8e/J)	.	.	.	.	.	.	.	.	.	.	.
!	!	!	!	!	!	!	!	!	!	!	!	!	!	!LO:SIC:s=4c/):v	!	!	!	!	!	!	!	!	!	!	!
4C/	8c/	4C\)	.	.	.	4A/)	.	.	.	4c\)	.	.	.	4c/	.	.	.	4a/)	.	.	.	4cc\)	.	.	.
.	8a/	.	.	.	.	.	.	.	.	.	.	.	.	.	.	.	.	.	.	.	.	.	.	.	.
4D\	8A/	4D\	.	-moc	-moc	4F#/	.	-moc	-moc	4A/	.	-moc	-moc	4d/	.	-moc	-moc	4f#/	.	-moc	-moc	4a\	.	-moc	-moc
.	8f#/J	.	.	.	.	.	.	.	.	.	.	.	.	.	.	.	.	.	.	.	.	.	.	.	.
=83	=83	=83	=83	=83	=83	=83	=83	=83	=83	=83	=83	=83	=83	=83	=83	=83	=83	=83	=83	=83	=83	=83	=83	=83	=83
4G\	8B/L	4G\	.	dać	dać,	4G/	.	dać	dać,	4B\	.	dać	dać,	4g/	.	dać	dać,	4g/	.	dać	dać,	4b/	.	dać	dać,
.	8d/	.	.	.	.	.	.	.	.	.	.	.	.	.	.	.	.	.	.	.	.	.	.	.	.
4r	8g/	4r	.	.	.	4r	.	.	.	4r	.	.	.	4r	.	.	.	4r	.	.	.	4r	.	.	.
.	8b/	.	.	.	.	.	.	.	.	.	.	.	.	.	.	.	.	.	.	.	.	.	.	.	.
4BB/	8g/	4BB/	.	On	On	4D/	.	On	On	4G/	.	On	On	4B/	.	On	On	4d/	.	On	On	4g/	.	On	On
.	8d/J	.	.	.	.	.	.	.	.	.	.	.	.	.	.	.	.	.	.	.	.	.	.	.	.
=84	=84	=84	=84	=84	=84	=84	=84	=84	=84	=84	=84	=84	=84	=84	=84	=84	=84	=84	=84	=84	=84	=84	=84	=84	=84
2C/	8e/L	2C/	.	go-	go-	2C/	.	go-	go-	2E/	.	go-	go-	2c/	.	go-	go-	2c/	.	go-	go-	2e/	.	go-	go-
.	8c/	.	.	.	.	.	.	.	.	.	.	.	.	.	.	.	.	.	.	.	.	.	.	.	.
.	8e/	.	.	.	.	.	.	.	.	.	.	.	.	.	.	.	.	.	.	.	.	.	.	.	.
.	8g/	.	.	.	.	.	.	.	.	.	.	.	.	.	.	.	.	.	.	.	.	.	.	.	.
4BB/	8d/	4BB/	.	-tów	-tów	4D/	.	-tów	-tów	4G/	.	-tów	-tów	4B/	.	-tów	-tów	4d/	.	-tów	-tów	4g/	.	-tów	-tów
.	8g/J	.	.	.	.	.	.	.	.	.	.	.	.	.	.	.	.	.	.	.	.	.	.	.	.
!	!	!	!	!	!	!LO:LB:g=original	!	!	!	!	!	!	!	!	!	!	!	!	!	!	!	!	!	!	!
=85	=85	=85	=85	=85	=85	=85	=85	=85	=85	=85	=85	=85	=85	=85	=85	=85	=85	=85	=85	=85	=85	=85	=85	=85	=85
!	!	!	!	!	!	!	!	!	!	!	!	!	!	!LO:SIC:s=(4A/:v	!	!	!	!	!	!	!	!	!	!	!
4AA/	8c/L	(4AA/	.	za-	za-	2E/	.	zaw-	za-	2c\	.	zaw-	za-	4A/	.	za-	za-	2e/	.	zaw-	za-	2cc\	.	zaw-	za-
.	8e/	.	.	.	.	.	.	.	.	.	.	.	.	.	.	.	.	.	.	.	.	.	.	.	.
!	!	!	!	!	!	!	!	!	!	!	!	!	!	!LO:SIC:s=4c/):v	!	!	!	!	!	!	!	!	!	!	!
4C/	8g/	4C/)	.	.	.	.	.	.	.	.	.	.	.	4c/	.	.	.	.	.	.	.	.	.	.	.
.	8cc/	.	.	.	.	.	.	.	.	.	.	.	.	.	.	.	.	.	.	.	.	.	.	.	.
4E/	8g/	4E/	.	-wsze	-wsze	4G/	.	-sze	-wsze	4c\	.	-sze	-wsze	4e/	.	-wsze	-wsze	4g/	.	-sze	-wsze	4cc\	.	-sze	-wsze
.	8cc/J	.	.	.	.	.	.	.	.	.	.	.	.	.	.	.	.	.	.	.	.	.	.	.	.
=86	=86	=86	=86	=86	=86	=86	=86	=86	=86	=86	=86	=86	=86	=86	=86	=86	=86	=86	=86	=86	=86	=86	=86	=86	=86
2.D\	8f#/L	2D\	.	po-	po-	2F#/	.	po-	po-	(4.c\	.	po-	po-	2d/	.	po-	po-	2f#/	.	po-	po-	(4.cc\	.	po-	po-
.	8cc/	.	.	.	.	.	.	.	.	.	.	.	.	.	.	.	.	.	.	.	.	.	.	.	.
.	8a/	.	.	.	.	.	.	.	.	.	.	.	.	.	.	.	.	.	.	.	.	.	.	.	.
.	8f#/	.	.	.	.	.	.	.	.	8B\)	.	.	.	.	.	.	.	.	.	.	.	8b\)	.	.	.
.	8d/	4D\	.	-moc	-moc	4F#/	.	-moc	-moc	8c\L	.	-moc	-moc	4d/	.	-moc	-moc	4f#/	.	-moc	-moc	8cc\L	.	-moc	-moc
.	8f#/J	.	.	.	.	.	.	.	.	8d\J	.	.	.	.	.	.	.	.	.	.	.	8dd\J	.	.	.
!LO:LB:g=original	!LO:LB:g=original	!	!	!	!	!	!	!	!	!	!	!	!	!LO:PB:g=original	!	!	!	!	!	!	!	!LO:PB:g=original	!	!	!
=87	=87	=87	=87	=87	=87	=87	=87	=87	=87	=87	=87	=87	=87	=87	=87	=87	=87	=87	=87	=87	=87	=87	=87	=87	=87
2.G\	8g/L	4G\	.	dać	dać,	4G/	.	dać	dać,	4B\	.	dać	dać,	4g/	.	dać	dać,	4g/	.	dać	dać,	4b\	.	dać	dać,
.	8b/	.	.	.	.	.	.	.	.	.	.	.	.	.	.	.	.	.	.	.	.	.	.	.	.
.	8g/	4r	.	.	.	4r	.	.	.	4r	.	.	.	4r	.	.	.	4r	.	.	.	4r	.	.	.
.	8d/	.	.	.	.	.	.	.	.	.	.	.	.	.	.	.	.	.	.	.	.	.	.	.	.
.	8B/	4G\	.	Swą	Swą	4G/	.	Swą	Swą	4G/	.	Swą	Swą	4g/	.	swą	Swą	4g/	.	Swą	Swą	4g/	.	Swą	Swą
.	8d/J	.	.	.	.	.	.	.	.	.	.	.	.	.	.	.	.	.	.	.	.	.	.	.	.
!	!	!	!	!	!	!	!	!	!	!	!	!	!	!	!	!	!	!LO:PB:g=original	!	!	!	!	!	!	!
=88	=88	=88	=88	=88	=88	=88	=88	=88	=88	=88	=88	=88	=88	=88	=88	=88	=88	=88	=88	=88	=88	=88	=88	=88	=88
2.Fn 2.FFn\	8g/L	2G\	.	ra-	ra-	2G/	.	ra-	ra-	2G/	.	ra-	ra-	2g/	.	ra-	ra-	2g/	.	ra-	ra-	2g/	.	ra-	ra-
.	8B/	.	.	.	.	.	.	.	.	.	.	.	.	.	.	.	.	.	.	.	.	.	.	.	.
.	8g/	.	.	.	.	.	.	.	.	.	.	.	.	.	.	.	.	.	.	.	.	.	.	.	.
.	8b/	.	.	.	.	.	.	.	.	.	.	.	.	.	.	.	.	.	.	.	.	.	.	.	.
.	8g/	4G\	.	-dą	-dą	4G/	.	-dą	-dą	4G/	.	-dą	-dą	4g/	.	-dą	-dą	4g/	.	-dą	-dą	4g/	.	-dą	-dą
.	8B/J	.	.	.	.	.	.	.	.	.	.	.	.	.	.	.	.	.	.	.	.	.	.	.	.
!	!	!LO:PB:g=original	!	!	!	!	!	!	!	!	!	!	!	!	!	!	!	!	!	!	!	!	!	!	!
=89	=89	=89	=89	=89	=89	=89	=89	=89	=89	=89	=89	=89	=89	=89	=89	=89	=89	=89	=89	=89	=89	=89	=89	=89	=89
2.E 2.EE/	8g/L	2G\	.	wes-	wes-	2G/	.	wes-	wes-	2G/	.	wes-	wes-	2g/	.	wes-	wes-	2g/	.	wes-	wes-	2g/	.	wes-	wes-
.	8B/	.	.	.	.	.	.	.	.	.	.	.	.	.	.	.	.	.	.	.	.	.	.	.	.
.	8g/	.	.	.	.	.	.	.	.	.	.	.	.	.	.	.	.	.	.	.	.	.	.	.	.
.	8b/	.	.	.	.	.	.	.	.	.	.	.	.	.	.	.	.	.	.	.	.	.	.	.	.
.	8g/	4G\	.	-przeć	-przeć,	4G/	.	-przeć	-przeć,	4G/	.	-przeć	-przeć,	4g/	.	-przeć	-przeć,	4g/	.	-przeć	-przeć,	4g/	.	-przeć	-przeć,
.	8B/J	.	.	.	.	.	.	.	.	.	.	.	.	.	.	.	.	.	.	.	.	.	.	.	.
=90	=90	=90	=90	=90	=90	=90	=90	=90	=90	=90	=90	=90	=90	=90	=90	=90	=90	=90	=90	=90	=90	=90	=90	=90	=90
2.D#X 2.DD#X/	8g/L	2G\	.	ży-	ży-	2G/	.	ży-	ży-	2G/	.	ży-	ży-	2g/	.	ży-	ży-	2g/	.	ży-	ży-	2g/	.	ży-	ży-
.	8B/	.	.	.	.	.	.	.	.	.	.	.	.	.	.	.	.	.	.	.	.	.	.	.	.
.	8g/	.	.	.	.	.	.	.	.	.	.	.	.	.	.	.	.	.	.	.	.	.	.	.	.
.	8b/	.	.	.	.	.	.	.	.	.	.	.	.	.	.	.	.	.	.	.	.	.	.	.	.
.	8g/	4G\	.	-wot	-wot	4G/	.	-wot	-wot	4G/	.	-wot	-wot	4g/	.	-wot	-wot	4g/	.	-wot	-wot	4g/	.	-wot	-wot
.	8B/J	.	.	.	.	.	.	.	.	.	.	.	.	.	.	.	.	.	.	.	.	.	.	.	.
=91	=91	=91	=91	=91	=91	=91	=91	=91	=91	=91	=91	=91	=91	=91	=91	=91	=91	=91	=91	=91	=91	=91	=91	=91	=91
4E 4EE/	8g/L	4G\	.	dać	dać,	4G/	.	dać	dać,	4G/	.	dać	dać,	4g/	.	dać	dać,	4g/	.	dać	dać,	4g/	.	dać	dać,
.	8cc/	.	.	.	.	.	.	.	.	.	.	.	.	.	.	.	.	.	.	.	.	.	.	.	.
4r	8g/	4r	.	.	.	4r	.	.	.	4r	.	.	.	4r	.	.	.	4r	.	.	.	4r	.	.	.
.	8e/	.	.	.	.	.	.	.	.	.	.	.	.	.	.	.	.	.	.	.	.	.	.	.	.
4r	8c/	4C/	.	Swą	Swą	4E/	.	Swą	Swą	4G/	.	Swą	Swą	4c/	.	swą	Swą	4e/	.	Swą	Swą	4g/	.	Swą	Swą
.	8e/J	.	.	.	.	.	.	.	.	.	.	.	.	.	.	.	.	.	.	.	.	.	.	.	.
=92	=92	=92	=92	=92	=92	=92	=92	=92	=92	=92	=92	=92	=92	=92	=92	=92	=92	=92	=92	=92	=92	=92	=92	=92	=92
2.C 2.CC/	8g\L	2E\	.	ra-	ra-	2G/	.	ra-	ra-	2c\	.	ra-	ra-	2e/	.	ra-	ra-	2g/	.	ra-	ra-	2cc\	.	ra-	ra-
.	8e\	.	.	.	.	.	.	.	.	.	.	.	.	.	.	.	.	.	.	.	.	.	.	.	.
.	8cc\	.	.	.	.	.	.	.	.	.	.	.	.	.	.	.	.	.	.	.	.	.	.	.	.
.	8g\	.	.	.	.	.	.	.	.	.	.	.	.	.	.	.	.	.	.	.	.	.	.	.	.
.	8ee\	4G\	.	-dą	-dą	4c\	.	-dą	-dą	4e\	.	-dą	-dą	4g/	.	-dą	-dą	4cc\	.	-dą	-dą	4ee\	.	-dą	-dą
.	8cc\J	.	.	.	.	.	.	.	.	.	.	.	.	.	.	.	.	.	.	.	.	.	.	.	.
=93	=93	=93	=93	=93	=93	=93	=93	=93	=93	=93	=93	=93	=93	=93	=93	=93	=93	=93	=93	=93	=93	=93	=93	=93	=93
!	!	!	!	!	!	!	!	!	!	!LO:TX:t=P:problem=takt dopisany nad pięciolinią	!	!	!	!	!	!	!	!	!	!	!	!	!	!	!
[2.D [2.DD/	8b\L	2G\	.	wes-	wes-	2B\	.	wes-	wes-	2d\	.	wes-	wes-	2g/	.	wes-	wes-	2b\	.	wes-	wes-	2dd\	.	wes-	wes-
.	8dd\	.	.	.	.	.	.	.	.	.	.	.	.	.	.	.	.	.	.	.	.	.	.	.	.
.	8b\	.	.	.	.	.	.	.	.	.	.	.	.	.	.	.	.	.	.	.	.	.	.	.	.
.	8g\	.	.	.	.	.	.	.	.	.	.	.	.	.	.	.	.	.	.	.	.	.	.	.	.
.	8b\	4G\	.	-przeć	-przeć,	4B\	.	-przeć	-przeć,	4d\	.	-przeć	-przeć,	4g/	.	-przeć	-przeć,	4b\	.	-przeć	-przeć,	4dd\	.	-przeć	-przeć,
.	8dd\J	.	.	.	.	.	.	.	.	.	.	.	.	.	.	.	.	.	.	.	.	.	.	.	.
=94	=94	=94	=94	=94	=94	=94	=94	=94	=94	=94	=94	=94	=94	=94	=94	=94	=94	=94	=94	=94	=94	=94	=94	=94	=94
2.D] 2.DD/]	8gg\L	2D\	.	ży-	ży-	2B\	.	ży-	ży-	(4g\	.	ży-	ży-	2d/	.	ży-	ży-	2b\	.	ży-	ży-	(4gg\	.	ży-	ży-
.	8dd\	.	.	.	.	.	.	.	.	.	.	.	.	.	.	.	.	.	.	.	.	.	.	.	.
.	8b\	.	.	.	.	.	.	.	.	4d\)	.	.	.	.	.	.	.	.	.	.	.	4dd\)	.	.	.
.	8g\	.	.	.	.	.	.	.	.	.	.	.	.	.	.	.	.	.	.	.	.	.	.	.	.
.	8a\	4D\	.	-wod	-wot	4A\	.	-wot	-wot	4c\	.	-wot	-wot	4d/	.	-wot	-wot	4a\	.	-wot	-wot	4cc\	.	-wot	-wot
.	8cc\J	.	.	.	.	.	.	.	.	.	.	.	.	.	.	.	.	.	.	.	.	.	.	.	.
=95	=95	=95	=95	=95	=95	=95	=95	=95	=95	=95	=95	=95	=95	=95	=95	=95	=95	=95	=95	=95	=95	=95	=95	=95	=95
2.G 2.GG\	8b\L	4G\	.	dać	dać.	4G/	.	dać	dać.	4B\	.	dać	dać.	4g/	.	dać	dać.	4g/	.	dać	dać.	4b\	.	dać	dać.
.	8dd\	.	.	.	.	.	.	.	.	.	.	.	.	.	.	.	.	.	.	.	.	.	.	.	.
.	8b\	4r	.	.	.	4r	.	.	.	4r	.	.	.	4r	.	.	.	4r	.	.	.	4r	.	.	.
.	8g\	.	.	.	.	.	.	.	.	.	.	.	.	.	.	.	.	.	.	.	.	.	.	.	.
.	8d\	4G\	.	O	O!	4B\	.	O	O!	4d\	.	O	O!	4g/	.	O	O!	4b\	.	O	O!	4dd\	.	O	O!
.	8g\J	.	.	.	.	.	.	.	.	.	.	.	.	.	.	.	.	.	.	.	.	.	.	.	.
=96	=96	=96	=96	=96	=96	=96	=96	=96	=96	=96	=96	=96	=96	=96	=96	=96	=96	=96	=96	=96	=96	=96	=96	=96	=96
2.G 2.GG\	8b\L	2G\	.	chwal-	chwal-	2B\	.	chwal-	chwal-	2d\	.	chwal-	chwal-	2g/	.	chwal-	chwal-	2b\	.	chwal-	chwal-	2dd\	.	Chwal-	chwal-
.	8dd\	.	.	.	.	.	.	.	.	.	.	.	.	.	.	.	.	.	.	.	.	.	.	.	.
.	8b\	.	.	.	.	.	.	.	.	.	.	.	.	.	.	.	.	.	.	.	.	.	.	.	.
.	8g\	.	.	.	.	.	.	.	.	.	.	.	.	.	.	.	.	.	.	.	.	.	.	.	.
.	8a#X\	4G\	.	-myż	-myż	4A#X\	.	-myż	-myż	4c#X\	.	-myż	-myż	4g/	.	-myż	-myż	4a#X\	.	-myż	-myż	4cc#X\	.	-myż	-myż
.	8cc#X\J	.	.	.	.	.	.	.	.	.	.	.	.	.	.	.	.	.	.	.	.	.	.	.	.
=97	=97	=97	=97	=97	=97	=97	=97	=97	=97	=97	=97	=97	=97	=97	=97	=97	=97	=97	=97	=97	=97	=97	=97	=97	=97
2.G 2.GG\	8b\L	2G\	.	Go	Go	2B\	.	Go	Go	2d\	.	Go	Go	2g/	.	Go	Go	2b\	.	Go	Go	2dd\	.	Go	Go
.	8dd\	.	.	.	.	.	.	.	.	.	.	.	.	.	.	.	.	.	.	.	.	.	.	.	.
.	8b\	.	.	.	.	.	.	.	.	.	.	.	.	.	.	.	.	.	.	.	.	.	.	.	.
.	8g\	.	.	.	.	.	.	.	.	.	.	.	.	.	.	.	.	.	.	.	.	.	.	.	.
.	8b\	4G\	.	ra-	ra-	4B\	.	ra-	ra-	4d#X\	.	ra-	ra-	4g/	.	ra-	ra-	4b\	.	ra-	ra-	4dd#X\	.	ra-	ra-
.	8dd#X\J	.	.	.	.	.	.	.	.	.	.	.	.	.	.	.	.	.	.	.	.	.	.	.	.
!LO:LB:g=original	!LO:LB:g=original	!	!	!	!	!	!	!	!	!	!	!	!	!	!	!	!	!	!	!	!	!	!	!	!
=98	=98	=98	=98	=98	=98	=98	=98	=98	=98	=98	=98	=98	=98	=98	=98	=98	=98	=98	=98	=98	=98	=98	=98	=98	=98
2.G 2.GG\	8cc\L	2.G\	.	-do-	-do-	2.c\	.	-do-	-do-	2.e\	.	-do-	-do-	2.g/	.	-do-	-do-	2.cc\	.	-do-	-do-	2.ee\	.	-do-	-do-
.	8ee\	.	.	.	.	.	.	.	.	.	.	.	.	.	.	.	.	.	.	.	.	.	.	.	.
.	8cc\	.	.	.	.	.	.	.	.	.	.	.	.	.	.	.	.	.	.	.	.	.	.	.	.
.	8g\	.	.	.	.	.	.	.	.	.	.	.	.	.	.	.	.	.	.	.	.	.	.	.	.
.	8cc\	.	.	.	.	.	.	.	.	.	.	.	.	.	.	.	.	.	.	.	.	.	.	.	.
.	8ee\J	.	.	.	.	.	.	.	.	.	.	.	.	.	.	.	.	.	.	.	.	.	.	.	.
!	!	!	!	!	!	!	!	!	!	!LO:LB:g=original	!	!	!	!LO:LB:g=original	!	!	!	!	!	!	!	!	!	!	!
=99	=99	=99	=99	=99	=99	=99	=99	=99	=99	=99	=99	=99	=99	=99	=99	=99	=99	=99	=99	=99	=99	=99	=99	=99	=99
4G 4GG\	8b\L	4G\	.	-śnie	-śnie,	4B\	.	-śnie	-śnie,	4dn\	.	-śnie	-śnie,	4g/	.	-śnie	-śnie,	4b\	.	-śnie	-śnie,	4ddn\	.	-śnie	-śnie,
.	8dd\	.	.	.	.	.	.	.	.	.	.	.	.	.	.	.	.	.	.	.	.	.	.	.	.
4r	8b\	4r	.	.	.	4r	.	.	.	4r	.	.	.	4r	.	.	.	4r	.	.	.	4r	.	.	.
.	8g\	.	.	.	.	.	.	.	.	.	.	.	.	.	.	.	.	.	.	.	.	.	.	.	.
4r	8b\	4G\	.	O!	O!	4B\	.	O	O!	4d\	.	O	O!	4g/	.	O	O!	4b\	.	O	O!	4dd\	.	O	O!
.	8dd\J	.	.	.	.	.	.	.	.	.	.	.	.	.	.	.	.	.	.	.	.	.	.	.	.
!	!	!	!	!	!	!	!	!	!	!	!	!	!	!	!	!	!	!	!	!	!	!LO:LB:g=original	!	!	!
=100	=100	=100	=100	=100	=100	=100	=100	=100	=100	=100	=100	=100	=100	=100	=100	=100	=100	=100	=100	=100	=100	=100	=100	=100	=100
2.D 2.DD/	8cc\L	2D\	.	chwal-	chwal-	2A/	.	chwal-	chwal-	2c\	.	chwal-	chwal-	2d/	.	chwal-	chwal-	2a/	.	Chwal-	chwal-	2cc\	.	chwal-	chwal-
.	8a\	.	.	.	.	.	.	.	.	.	.	.	.	.	.	.	.	.	.	.	.	.	.	.	.
.	8f#\	.	.	.	.	.	.	.	.	.	.	.	.	.	.	.	.	.	.	.	.	.	.	.	.
.	8a\	.	.	.	.	.	.	.	.	.	.	.	.	.	.	.	.	.	.	.	.	.	.	.	.
.	8g#X\	4D\	.	-myż	-myż	4G#X/	.	-myż	-myż	4B\	.	-myż	-myż	4d/	.	-myż	-myż	4g#X/	.	-lmyż	-lmyż	4b\	.	-myż	-myż
.	8b\J	.	.	.	.	.	.	.	.	.	.	.	.	.	.	.	.	.	.	.	.	.	.	.	.
!	!	!	!	!	!	!	!	!	!	!	!	!	!	!	!	!	!	!LO:LB:g=original	!	!	!	!	!	!	!
=101	=101	=101	=101	=101	=101	=101	=101	=101	=101	=101	=101	=101	=101	=101	=101	=101	=101	=101	=101	=101	=101	=101	=101	=101	=101
2.D 2.DD/	8a\L	2D\	.	Go	Go	(4A/	.	Go	Go	(4c\	.	Go	Go	2d/	.	Go	Go	(4a/	.	Go	Go	(4cc\	.	Go	Go
.	8cc\	.	.	.	.	.	.	.	.	.	.	.	.	.	.	.	.	.	.	.	.	.	.	.	.
.	8b\	.	.	.	.	4B/)	.	.	.	4d\)	.	.	.	.	.	.	.	4b/)	.	.	.	4dd\)	.	.	.
.	8dd\	.	.	.	.	.	.	.	.	.	.	.	.	.	.	.	.	.	.	.	.	.	.	.	.
.	8a\	4D\	.	ra-	ra-	4A/	.	ra-	ra-	4c\	.	ra-	ra-	4d/	.	ra-	ra-	4a/	.	ra-	ra-	4cc\	.	ra-	ra-
.	8cc\J	.	.	.	.	.	.	.	.	.	.	.	.	.	.	.	.	.	.	.	.	.	.	.	.
=102	=102	=102	=102	=102	=102	=102	=102	=102	=102	=102	=102	=102	=102	=102	=102	=102	=102	=102	=102	=102	=102	=102	=102	=102	=102
2.G 2.GG\	8b\L	2.G\	.	-do-	-do-	2.Gn/	.	-do-	-do-	2.B\	.	-do-	-do-	2.g/	.	-do-	-do-	2.gn/	.	-do-	-do-	2.b\	.	-do-	-do-
.	8dd\	.	.	.	.	.	.	.	.	.	.	.	.	.	.	.	.	.	.	.	.	.	.	.	.
.	8b\	.	.	.	.	.	.	.	.	.	.	.	.	.	.	.	.	.	.	.	.	.	.	.	.
.	8g\	.	.	.	.	.	.	.	.	.	.	.	.	.	.	.	.	.	.	.	.	.	.	.	.
.	8d\	.	.	.	.	.	.	.	.	.	.	.	.	.	.	.	.	.	.	.	.	.	.	.	.
.	8B\J	.	.	.	.	.	.	.	.	.	.	.	.	.	.	.	.	.	.	.	.	.	.	.	.
=103	=103	=103	=103	=103	=103	=103	=103	=103	=103	=103	=103	=103	=103	=103	=103	=103	=103	=103	=103	=103	=103	=103	=103	=103	=103
4G 4GG\	8G/L	4G\	.	-śnie	-śnie,	4G/	.	-śnie	-śnie,	4G/	.	-śnie	-śnie,	4g/	.	-śnie	-śnie,	4g/	.	-śnie	-śnie,	4g/	.	-śnie	-śnie,
.	8B/	.	.	.	.	.	.	.	.	.	.	.	.	.	.	.	.	.	.	.	.	.	.	.	.
4r	8d/	4r	.	.	.	4r	.	.	.	4r	.	.	.	4r	.	.	.	4r	.	.	.	4r	.	.	.
.	8g/	.	.	.	.	.	.	.	.	.	.	.	.	.	.	.	.	.	.	.	.	.	.	.	.
4r	8b/	4G\	.	O!	O!	4B\	.	O	O!	4d\	.	O	O!	4g/	.	O	O!	4b\	.	O	O!	4dd\	.	O!	O!
.	8dd/J	.	.	.	.	.	.	.	.	.	.	.	.	.	.	.	.	.	.	.	.	.	.	.	.
!	!	!LO:LB:g=original	!	!	!	!LO:LB:g=original	!	!	!	!	!	!	!	!	!	!	!	!	!	!	!	!	!	!	!
=104	=104	=104	=104	=104	=104	=104	=104	=104	=104	=104	=104	=104	=104	=104	=104	=104	=104	=104	=104	=104	=104	=104	=104	=104	=104
2.G 2.GG\	8b\L	2G\	.	chwal-	chwal-	2B\	.	chwal-	chwal-	2d\	.	chwal-	chwal-	2g/	.	chwal-	chwal-	2b\	.	chwal-	chwal-	2dd\	.	chwal-	chwal-
.	8dd\	.	.	.	.	.	.	.	.	.	.	.	.	.	.	.	.	.	.	.	.	.	.	.	.
.	8b\	.	.	.	.	.	.	.	.	.	.	.	.	.	.	.	.	.	.	.	.	.	.	.	.
.	8g\	.	.	.	.	.	.	.	.	.	.	.	.	.	.	.	.	.	.	.	.	.	.	.	.
.	8a#X\	4G\	.	-myż	-myż	4A#X\	.	-myż	-myż	4c#X\	.	-myż	-myż	4g/	.	-myż	-myż	4a#X\	.	-myż	-myż	4cc#X\	.	-myż	-myż
.	8cc#X\J	.	.	.	.	.	.	.	.	.	.	.	.	.	.	.	.	.	.	.	.	.	.	.	.
=105	=105	=105	=105	=105	=105	=105	=105	=105	=105	=105	=105	=105	=105	=105	=105	=105	=105	=105	=105	=105	=105	=105	=105	=105	=105
2.G 2.GG\	8b\L	2G\	.	Go	Go	(4B\	.	Go	Go	(4d\	.	Go	Go	2g/	.	Go	Go	(4b\	.	Go	Go	(4dd\	.	Go	Go
.	8dd\	.	.	.	.	.	.	.	.	.	.	.	.	.	.	.	.	.	.	.	.	.	.	.	.
!	!	!	!	!	!	!LO:SIC:s=4e\):v	!	!	!	!	!	!	!	!	!	!	!	!	!	!	!	!	!	!	!
.	8ee\	.	.	.	.	4e\	.	.	.	4g\)	.	.	.	.	.	.	.	4ee\)	.	.	.	4gg\)	.	.	.
.	8gg\	.	.	.	.	.	.	.	.	.	.	.	.	.	.	.	.	.	.	.	.	.	.	.	.
!	!	!	!	!	!	!LO:SIC:s=4d\:v	!	!	!	!	!	!	!	!	!	!	!	!	!	!	!	!	!	!	!
.	8dd\	4G\	.	ra-	ra-	4d\)	.	ra-	ra-	4f#\	.	ra-	ra-	4g/	.	ra-	ra-	4dd\	.	ra-	ra-	4ff#\	.	ra-	ra-
.	8ff#\J	.	.	.	.	.	.	.	.	.	.	.	.	.	.	.	.	.	.	.	.	.	.	.	.
=106	=106	=106	=106	=106	=106	=106	=106	=106	=106	=106	=106	=106	=106	=106	=106	=106	=106	=106	=106	=106	=106	=106	=106	=106	=106
2.G 2.GG\	8cc\L	2.G\	.	-do-	-do-	(4c\	.	-do-	-do-	(4e\	.	-do-	-do-	2.g/	.	-do-	-do-	(4cc\	.	-do-	-do-	(4ee\	.	-do-	-do-
.	8ee\	.	.	.	.	.	.	.	.	.	.	.	.	.	.	.	.	.	.	.	.	.	.	.	.
.	8b\	.	.	.	.	4B\	.	.	.	4d\	.	.	.	.	.	.	.	4b\	.	.	.	4dd\	.	.	.
.	8dd\	.	.	.	.	.	.	.	.	.	.	.	.	.	.	.	.	.	.	.	.	.	.	.	.
.	8a#X\	.	.	.	.	4A#X\)	.	.	.	4c#X\)	.	.	.	.	.	.	.	4a#X\)	.	.	.	4cc#X\)	.	.	.
.	8cc#X\J	.	.	.	.	.	.	.	.	.	.	.	.	.	.	.	.	.	.	.	.	.	.	.	.
=107	=107	=107	=107	=107	=107	=107	=107	=107	=107	=107	=107	=107	=107	=107	=107	=107	=107	=107	=107	=107	=107	=107	=107	=107	=107
4G 4GG\	8b/L	4G\	.	-śnie	-śnie,	4B\	.	-śnie	-śnie,	4d\	.	-śnie	-śnie,	4g/	.	-śnie	-śnie,	4b\	.	-śnie	-śnie,	4dd\	.	-śnie	-śnie,
.	8dd/	.	.	.	.	.	.	.	.	.	.	.	.	.	.	.	.	.	.	.	.	.	.	.	.
4r	8b/	4r	.	.	.	4r	.	.	.	4r	.	.	.	4r	.	.	.	4r	.	.	.	4r	.	.	.
.	8g/	.	.	.	.	.	.	.	.	.	.	.	.	.	.	.	.	.	.	.	.	.	.	.	.
4r	8d/	4D\	.	O	O!	4r	.	.	.	4B\	.	O	O!	4d/	.	O	O!	4g/	.	O	O!	4b\	.	O!	O!
!	!LO:MO:mod=!null:null	!	!	!	!	!	!	!	!	!	!	!	!	!	!	!	!	!	!	!	!	!	!	!	!
!	!LO:TX:a:t=da-	!	!	!	!	!	!	!	!	!	!	!	!	!	!	!	!	!	!	!	!	!	!	!	!
.	8g/J	.	.	.	.	.	.	.	.	.	.	.	.	.	.	.	.	.	.	.	.	.	.	.	.
!LO:PB:g=original	!LO:PB:g=original	!	!	!	!	!	!	!	!	!	!	!	!	!	!	!	!	!	!	!	!	!	!	!	!
=108	=108	=108	=108	=108	=108	=108	=108	=108	=108	=108	=108	=108	=108	=108	=108	=108	=108	=108	=108	=108	=108	=108	=108	=108	=108
!	!LO:MO:mod=!null:null	!	!	!	!	!	!	!	!	!	!	!	!	!	!	!	!	!	!	!	!	!	!	!	!
!	!LO:TX:a:t=lej.	!	!	!	!	!	!	!	!	!	!	!	!	!	!	!	!	!	!	!	!	!	!	!	!
2.D 2.DD/	8b/L	2D\	.	chwal-	chwal-	2G/	.	Chwal-	chwal-	2B\	.	cwal-	chwal-	2d/	.	chwa-	chwal-	2g/	.	chwal-	chwal-	2b\	.	chwal-	chwal-
.	8g/	.	.	.	.	.	.	.	.	.	.	.	.	.	.	.	.	.	.	.	.	.	.	.	.
.	8d/	.	.	.	.	.	.	.	.	.	.	.	.	.	.	.	.	.	.	.	.	.	.	.	.
.	8g/	.	.	.	.	.	.	.	.	.	.	.	.	.	.	.	.	.	.	.	.	.	.	.	.
.	8b/	4D\	.	-myż	-myż	4G/	.	-myż	-myż	4B\	.	-myż	-myż	4d/	.	-lmyż	-myż	4g/	.	-myż	-myż	4b\	.	-myż	-myż
.	8g/J	.	.	.	.	.	.	.	.	.	.	.	.	.	.	.	.	.	.	.	.	.	.	.	.
=109	=109	=109	=109	=109	=109	=109	=109	=109	=109	=109	=109	=109	=109	=109	=109	=109	=109	=109	=109	=109	=109	=109	=109	=109	=109
2.D 2.DD/	8b\L	2D\	.	Go	Go	(4B/	.	Go	Go	(4d\	.	Go	Go	2d/	.	Go	Go	(4b/	.	Go	Go	(4dd\	.	Go	Go
.	8dd\	.	.	.	.	.	.	.	.	.	.	.	.	.	.	.	.	.	.	.	.	.	.	.	.
.	8a\	.	.	.	.	4A/)	.	.	.	4c\)	.	.	.	.	.	.	.	4a/)	.	.	.	4cc\)	.	.	.
.	8cc\	.	.	.	.	.	.	.	.	.	.	.	.	.	.	.	.	.	.	.	.	.	.	.	.
.	8a\	4D\	.	ra-	ra-	4F#/	.	ra-	ra-	4A/	.	ra-	ra-	4d/	.	ra-	ra-	4f#/	.	ra-	ra-	4a\	.	ra-	ra-
.	8f#\J	.	.	.	.	.	.	.	.	.	.	.	.	.	.	.	.	.	.	.	.	.	.	.	.
=110	=110	=110	=110	=110	=110	=110	=110	=110	=110	=110	=110	=110	=110	=110	=110	=110	=110	=110	=110	=110	=110	=110	=110	=110	=110
2.c 2.A 2.F# 2.D\	8d/L	2.D\	.	-do-	-do-	2.F#/	.	-do-	-do-	2.A/	.	-do-	-do-	2.d/	.	-do-	-do-	2.f#/	.	-dos-	-do-	2.a/	.	-do-	-do-
.	8c#X/	.	.	.	.	.	.	.	.	.	.	.	.	.	.	.	.	.	.	.	.	.	.	.	.
.	8d/	.	.	.	.	.	.	.	.	.	.	.	.	.	.	.	.	.	.	.	.	.	.	.	.
.	8d#X/	.	.	.	.	.	.	.	.	.	.	.	.	.	.	.	.	.	.	.	.	.	.	.	.
.	8e/	.	.	.	.	.	.	.	.	.	.	.	.	.	.	.	.	.	.	.	.	.	.	.	.
.	8f#/J	.	.	.	.	.	.	.	.	.	.	.	.	.	.	.	.	.	.	.	.	.	.	.	.
=111	=111	=111	=111	=111	=111	=111	=111	=111	=111	=111	=111	=111	=111	=111	=111	=111	=111	=111	=111	=111	=111	=111	=111	=111	=111
4B 4G\	8g\L	4G\	.	-śnie	-śnie!	4G/	.	-śnie	-śnie!	4B/	.	-śnie	-śnie!	4g/	.	śnie	śnie!	4g/	.	-nie	-śnie!	4b\	.	-śnie	-śnie!
.	8d\	.	.	.	.	.	.	.	.	.	.	.	.	.	.	.	.	.	.	.	.	.	.	.	.
4r	8b\	4r	.	.	.	4r	.	.	.	4r	.	.	.	4r	.	.	.	4r	.	.	.	4r	.	.	.
.	8g\	.	.	.	.	.	.	.	.	.	.	.	.	.	.	.	.	.	.	.	.	.	.	.	.
4r	8dd\	4r	.	.	.	4r	.	.	.	4r	.	.	.	4r	.	.	.	4r	.	.	.	4r	.	.	.
.	8b\J	.	.	.	.	.	.	.	.	.	.	.	.	.	.	.	.	.	.	.	.	.	.	.	.
!	!	!	!	!	!	!	!	!	!	!	!	!	!	!LO:LB:g=original	!	!	!	!	!	!	!	!	!	!	!
=112	=112	=112	=112	=112	=112	=112	=112	=112	=112	=112	=112	=112	=112	=112	=112	=112	=112	=112	=112	=112	=112	=112	=112	=112	=112
2.G 2.D 2.BB 2.GG\	8dd\L	[2.G\	.	A-	A-	[2.B\	.	A-	A-	[2.d\	.	A-	A-	[2.g/	.	A-	A-	[2.b\	.	A-	A-	[2.dd\	.	A-	A-
.	8b\	.	.	.	.	.	.	.	.	.	.	.	.	.	.	.	.	.	.	.	.	.	.	.	.
.	8gg\	.	.	.	.	.	.	.	.	.	.	.	.	.	.	.	.	.	.	.	.	.	.	.	.
.	8dd\	.	.	.	.	.	.	.	.	.	.	.	.	.	.	.	.	.	.	.	.	.	.	.	.
.	8b\	.	.	.	.	.	.	.	.	.	.	.	.	.	.	.	.	.	.	.	.	.	.	.	.
.	8g\J	.	.	.	.	.	.	.	.	.	.	.	.	.	.	.	.	.	.	.	.	.	.	.	.
=113	=113	=113	=113	=113	=113	=113	=113	=113	=113	=113	=113	=113	=113	=113	=113	=113	=113	=113	=113	=113	=113	=113	=113	=113	=113
2.G 2.D 2.BB 2.GG\	8b/L	2.G\_	.	.	.	2.B\_	.	.	.	2.d\_	.	.	.	2.g/_	.	.	.	2.b\_	.	.	.	2.dd\_	.	.	.
.	8g/	.	.	.	.	.	.	.	.	.	.	.	.	.	.	.	.	.	.	.	.	.	.	.	.
.	8dd/	.	.	.	.	.	.	.	.	.	.	.	.	.	.	.	.	.	.	.	.	.	.	.	.
.	8b/	.	.	.	.	.	.	.	.	.	.	.	.	.	.	.	.	.	.	.	.	.	.	.	.
.	8g/	.	.	.	.	.	.	.	.	.	.	.	.	.	.	.	.	.	.	.	.	.	.	.	.
.	8d/J	.	.	.	.	.	.	.	.	.	.	.	.	.	.	.	.	.	.	.	.	.	.	.	.
=114	=114	=114	=114	=114	=114	=114	=114	=114	=114	=114	=114	=114	=114	=114	=114	=114	=114	=114	=114	=114	=114	=114	=114	=114	=114
2.G 2.D 2.BB 2.GG\	8g/L	2.G\]	.	.	.	2.B\]	.	.	.	2.d\]	.	.	.	2.g/]	.	.	.	2.b\]	.	.	.	2.dd\]	.	.	.
.	8d/	.	.	.	.	.	.	.	.	.	.	.	.	.	.	.	.	.	.	.	.	.	.	.	.
.	8b/	.	.	.	.	.	.	.	.	.	.	.	.	.	.	.	.	.	.	.	.	.	.	.	.
.	8g/	.	.	.	.	.	.	.	.	.	.	.	.	.	.	.	.	.	.	.	.	.	.	.	.
.	8d/	.	.	.	.	.	.	.	.	.	.	.	.	.	.	.	.	.	.	.	.	.	.	.	.
.	8B/J	.	.	.	.	.	.	.	.	.	.	.	.	.	.	.	.	.	.	.	.	.	.	.	.
=115	=115	=115	=115	=115	=115	=115	=115	=115	=115	=115	=115	=115	=115	=115	=115	=115	=115	=115	=115	=115	=115	=115	=115	=115	=115
4D 4BB 4GG\	4G/	4G\	.	-men.	-men.	4G/	.	-men	-men.	4B\	.	-men.	-men.	4g/	.	-men.	-men.	4g/	.	-men.	-men.	4b\	.	-men.	-men.
4r	4r	2r	.	.	.	2r	.	.	.	4r	.	.	.	4r	.	.	.	4r	.	.	.	4r	.	.	.
!LO:MO:mod=!null:null	!	!	!	!	!	!	!	!	!	!	!	!	!	!	!	!	!	!	!	!	!	!	!	!	!
!LO:TX:b:i:t=Fine.	!	!	!	!	!	!	!	!	!	!	!	!	!	!	!	!	!	!	!	!	!	!	!	!	!
4r	4r	.	.	.	.	.	.	.	.	4r	.	.	.	4r	.	.	.	4r	.	.	.	4r	.	.	.
==	==	==	==	==	==	==	==	==	==	==	==	==	==	==	==	==	==	==	==	==	==	==	==	==	==
*-	*-	*-	*-	*-	*-	*-	*-	*-	*-	*-	*-	*-	*-	*-	*-	*-	*-	*-	*-	*-	*-	*-	*-	*-	*-
!!!system-decoration: [(g1)]{(s7,s8)}
!!!RDF**kern: > = above
!!!RDF**kern: < = below
!!!filter-modern: tie -s | humtr -p | sic -sq | shed -e "s/LO:DY:(a|b|rj)/LO:dy:$1/L" | shed -e "s/TX(.*):t=P:/tx$1:t=P:/LG" | modori -m | autostem -r | shed -e "s/yy//" | shed -k -e "s/\(y([^y])/($1/" | shed -e "s/-//B" | shed -e "s/^(\d+[\/\\]right)/$1yy/I; s/^(\d+[\/\\]left)/$1yy/I" | shed -e "s/^(X?)rep$/$1REP/I" | shed -k -e "s/[<>]//g" | shed -e "s/^custos:/Xcustos:/I" | shed -k -e "s/:TUP:/:tup:/L" | rid -lid
!!!ENC: Andrzej Gręziak
!!!END: 2020-08-15
!!!ENC: Andrzej Kubiczek
!!!END: 2022-02-20
!!!EED-modern: Antoni Szymański
!!!END-modern: 2022-07-04
!!!YEC: Copyright 2022 Narodowy Instytut Fryderyka Chopina (https://polishscores.org)
!!!YEM: License CC-BY-4.0 (https://creativecommons.org/licenses/by/4.0)
